!!!!SEGMENT: pl-cz--ii-240--007_zeidler-jozef--stabat-mater-virgo-virginum-praeclara.krn
!!!cenid: 18xx:309
!!!COM: Zeidler, Józef
!!!COM-rismid: pe30003401
!!!CDT: ~1744-1806
!!!CNT: Polish
!!!OPR: Stabat Mater
!!!OTL: Virgo virginum praeclara
!!!OMV: 007
!!!PDT: 1840
!!!AGN: Sacred
!!!SMS-siglum: PL-CZ
!!!SMS-shelfmark: II-240
!!!SMS-shelfwork: 001-007 M
!!!NIFC-rismid:
!!!URL-scan: http://repozytorium.nifc.pl/skany/pl-cz-nut--ii-240
!!!ONB-nifc: UWAGA: części: Stabat Mater, Quae merebat, Quis est homo, Quis non posset, Eja Mater, Fac me vere, Virgo virginum praeclara, Inflammatus, Quando corpus morietur, Amen
!!!key:
**kern	**fb	**dynam	**kern	**kern	**kern	**text	**kern	**text	**kern	**dynam	**kern	**dynam	**kern	**dynam	**kern	**kern	**kern	**dynam	**kern
*part12	*	*part12	*part8	*part7	*part6	*part6	*part5	*part5	*part11	*part11	*part10	*part10	*part9	*part9	*part4	*part3	*part2	*part2	*part1
*staff12	*	*	*staff8	*staff7	*staff6	*staff6	*staff5	*staff5	*staff11	*	*staff10	*	*staff9	*	*staff4	*staff3	*staff2	*	*staff1
*group5	*	*	*group4	*group4	*group4	*	*group4	*	*group3	*	*group3	*	*group3	*	*group2	*group2	*group1	*	*group1
*Iorgan	*	*	*Ibass	*Itenor	*Ialto	*	*Ivox	*	*Iviola	*	*Ivioln	*	*Iempty	*	*Icor	*Icor	*Iclars	*	*Iclars
*I"Organo	*	*	*I"Basso	*I"Tenore	*I"Alt	*	*I"Cant.	*	*I"Viola	*	*I"Violin 2do	*	*I"Violio 1mo	*	*I"Corno 2do	*I"Corno 1mo	*I"Clarinetto 2do in B	*	*I"Clarinetto 1mo in B
*I'Org	*	*	*I'B.	*I'T.	*I'A	*	*I'C	*	*I'V-la	*	*I'V-no 2	*	*I'V-no 1	*	*I'Cor 2	*I'Cor 1	*I'Cl 2	*	*I'Cl 1
*clefF4	*	*	*clefF4	*clefC4	*clefC3	*	*clefC1	*	*clefC3	*	*clefG2	*	*clefG2	*	*clefG2	*clefG2	*clefG2	*	*clefG2
*	*	*	*	*	*k[f#]	*	*	*	*	*	*	*	*	*	*ITrd4c7	*ITrd4c7	*ITrd1c2	*	*ITrd1c2
*	*	*	*	*	*G:	*	*	*	*	*	*	*	*	*	*ITrd4c7	*ITrd4c7	*ITrd1c2	*	*ITrd1c2
*k[f#]	*	*	*k[f#]	*k[f#]	*M4/4	*	*k[f#]	*	*k[f#]	*	*k[f#]	*	*k[f#]	*	*k[f#]	*k[f#]	*k[f#]	*	*k[f#]
*M4/4	*	*	*M4/4	*M4/4	*met(c)	*	*M4/4	*	*M4/4	*	*M4/4	*	*M4/4	*	*M4/4	*M4/4	*M4/4	*	*M4/4
*met(c)	*	*	*met(c)	*met(c)	*	*	*met(c)	*	*met(c)	*	*met(c)	*	*met(c)	*	*met(c)	*met(c)	*met(c)	*	*met(c)
=1	=1	=1	=1	=1	=1	=1	=1	=1	=1	=1	=1	=1	=1	=1	=1	=1	=1	=1	=1
!	!	!	!	!	!LO:TX:a:B:t=Andante	!	!	!	!	!	!	!	!	!	!	!	!	!	!
*	*	*	*	*	*	*	*	*	*	*	*2\right	*	*2\right	*below	*	*	*	*	*
!LO:TX:a:B:t=Andante	!LO:DY:t=for	!	!	!	!	!	!LO:TX:a:B:t=Andante	!	!LO:TX:a:B:t=Andante	!LO:DY:t=fr	!LO:TX:a:B:t=Andante	!	!LO:TX:a:B:t=Andante	!LO:DY:b	!	!	!LO:TX:a:B:t=Andante	!	!LO:TX:a:B:t=Andante
*tb96	*	*	*tb96	*tb96	*	*	*tb96	*	*tb96	*	*tb96	*	*tb96	*	*tb96	*tb96	*tb96	*	*tb96
4G\	.	f	1ryy	1ryy	00r	.	00r	.	4g\	f	2b\	f	[2dd\	f	1ryy	1ryy	00r	.	00r
4G\	.	.	.	.	.	.	.	.	4g\	.	.	.	.	.	.	.	.	.	.
!	!	!	!	!	!	!	!	!	!	!	!	!	!LO:TX:b:i:t=Dolce	!	!	!	!	!	!
4G\	.	.	.	.	.	.	.	.	4g\	.	8b\L	.	8dd\L]	.	.	.	.	.	.
.	.	.	.	.	.	.	.	.	.	.	8cc\	.	(8ee\	.	.	.	.	.	.
4G\	.	.	.	.	.	.	.	.	4g\	.	8a\	.	8ff#\	.	.	.	.	.	.
.	.	.	.	.	.	.	.	.	.	.	8b\J	.	8gg\J)	.	.	.	.	.	.
=2	=2	=2	=2	=2	=2	=2	=2	=2	=2	=2	=2	=2	=2	=2	=2	=2	=2	=2	=2
.	.	.	.	.	.	.	.	.	.	.	.	.	16qqff#/	.	.	.	.	.	.
4G\	6 4	.	1ryy	1ryy	.	.	.	.	4g\	.	2cc\	.	2ee\	.	1ryy	1ryy	.	.	.
4G\	.	.	.	.	.	.	.	.	4g\	.	.	.	.	.	.	.	.	.	.
4G\	5 3	.	.	.	.	.	.	.	4g\	.	4b\	.	4dd\	.	.	.	.	.	.
4G\	.	.	.	.	.	.	.	.	4g\	.	4r	.	4r	.	.	.	.	.	.
=3	=3	=3	=3	=3	=3	=3	=3	=3	=3	=3	=3	=3	=3	=3	=3	=3	=3	=3	=3
*	*	*	*	*	*	*	*	*	*2\right	*	*	*	*	*	*	*	*	*	*
2C/	.	.	1ryy	1ryy	.	.	.	.	2c\	.	4a\	.	4cc\	.	1ryy	1ryy	.	.	.
.	.	.	.	.	.	.	.	.	.	.	2g\	.	2b\	.	.	.	.	.	.
2D/	6 4	.	.	.	.	.	.	.	2d\	.	.	.	.	.	.	.	.	.	.
.	5 3	.	.	.	.	.	.	.	.	.	4f#\	.	4a\	.	.	.	.	.	.
=4	=4	=4	=4	=4	=4	=4	=4	=4	=4	=4	=4	=4	=4	=4	=4	=4	=4	=4	=4
4G\	.	.	1ryy	1ryy	.	.	.	.	4g\	.	(8a\L	.	(8cc\L	.	1ryy	1ryy	.	.	.
.	.	.	.	.	.	.	.	.	.	.	8g\)	.	8b\)	.	.	.	.	.	.
4G\	.	.	.	.	.	.	.	.	4g\	.	(8cc\	.	(8ee\	.	.	.	.	.	.
.	.	.	.	.	.	.	.	.	.	.	8b\J)	.	8dd\J)	.	.	.	.	.	.
4G\	.	.	.	.	.	.	.	.	4g\	.	4b\	.	4dd\	.	.	.	.	.	.
4G\	.	.	.	.	.	.	.	.	4g\	.	4r	.	4r	.	.	.	.	.	.
=5	=5	=5	=5	=5	=5	=5	=5	=5	=5	=5	=5	=5	=5	=5	=5	=5	=5	=5	=5
*	*	*	*	*	*	*	*	*	*	*	*	*	*	*	*	*	*2\right	*	*2\right
!	!	!	!	!	!	!	!	!	!	!	!	!	!	!	!	!	!	!LO:HP:t=Cres	!
!	!	!	!	!	!	!	!	!	!	!	!	!	!	!	!	!	!LO:TX:a:t=Dolce	!	!LO:TX:a:t=Dolce
4GG/	.	p	1ryy	1ryy	00r	.	00r	.	4G/	p	2B/	p	[2d/	p	1ryy	1ryy	2b\	<	2dd\
4GG/	.	.	.	.	.	.	.	.	4G/	.	.	.	.	.	.	.	.	.	.
4GG/	.	.	.	.	.	.	.	.	4G/	.	8B/L	.	8d/L]	.	.	.	8b\L	.	8dd\L
.	.	.	.	.	.	.	.	.	.	.	8c/	.	(8e/	.	.	.	8cc\	.	8ee\
4GG/	.	.	.	.	.	.	.	.	4G/	.	8A/	.	8f#/	.	.	.	8a\	.	8ff#\
.	.	.	.	.	.	.	.	.	.	.	8B/J	.	8g/J)	.	.	.	8b\J	.	8gg\J
=6	=6	=6	=6	=6	=6	=6	=6	=6	=6	=6	=6	=6	=6	=6	=6	=6	=6	=6	=6
.	.	.	.	.	.	.	.	.	.	.	16qqd/	.	8qqf#/	.	.	.	.	.	8qqff#/
4GG/	6 4	.	1ryy	1ryy	.	.	.	.	4G/	.	2c/	.	2e/	.	1ryy	1ryy	2cc\	.	2ee\
4GG/	.	.	.	.	.	.	.	.	4G/	.	.	.	.	.	.	.	.	.	.
4GG/	5 3	.	.	.	.	.	.	.	4G/	.	4B/	.	4d/	.	.	.	4b\	.	4dd\
4GG/	.	.	.	.	.	.	.	.	4G/	.	4r	.	4r	.	.	.	4r	.	4r
=7	=7	=7	=7	=7	=7	=7	=7	=7	=7	=7	=7	=7	=7	=7	=7	=7	=7	=7	=7
!LO:LB:g=original	!	!	!	!	!	!	!	!	!	!	!LO:LB:g=original	!	!	!	!	!	!	!	!
.	.	.	.	.	.	.	.	.	.	.	16qqd/	.	.	.	.	.	.	.	8qqdd/
2C/	.	.	1ryy	1ryy	.	.	.	.	2c\	.	4c/	.	4d/	.	1ryy	1ryy	4a\	.	4cc\
.	.	.	.	.	.	.	.	.	.	.	2B/	.	2B/	.	.	.	2g\	.	2b\
2D/	.	.	.	.	.	.	.	.	2d\	.	.	.	.	.	.	.	.	.	.
.	.	.	.	.	.	.	.	.	.	.	4A/	.	4A/	.	.	.	4f#\	.	4a\
=8	=8	=8	=8	=8	=8	=8	=8	=8	=8	=8	=8	=8	=8	=8	=8	=8	=8	=8	=8
!	!	!LO:DY:t=for	!	!	!	!	!	!	!	!	!	!	!	!	!	!	!	!	!
4G\	.	f ???	1ryy	1ryy	.	.	.	.	4g\	f	4G/	.	4B/	.	1ryy	1ryy	2g^\	.	2b\
4GG/	.	.	.	.	.	.	.	.	4G/	.	8r	.	8r	.	.	.	.	.	.
.	.	.	.	.	.	.	.	.	.	.	8g/	f	8g/	f	.	.	.	.	.
2r	.	.	.	.	.	.	.	.	2r	.	8f#/L	.	8a/L	.	.	.	2r	.	2r
.	.	.	.	.	.	.	.	.	.	.	8g/	.	8g/	.	.	.	.	.	.
.	.	.	.	.	.	.	.	.	.	.	8a/	.	8cc/	.	.	.	.	.	.
.	.	.	.	.	.	.	.	.	.	.	8g/J	.	8b/J	.	.	.	.	.	.
=9	=9	=9	=9	=9	=9	=9	=9	=9	=9	=9	=9	=9	=9	=9	=9	=9	=9	=9	=9
!	!	!	!	!	!	!	!	!	!	!	!	!	!LO:LB:g=original	!	!	!	!	!	!
.	.	.	.	.	.	.	.	.	.	.	.	.	8qqb/	.	.	.	.	.	.
4D/	.	.	1ryy	1ryy	00r	.	00r	.	4d\	.	4f#/	.	4a/	.	1ryy	1ryy	2ff#^\	.	2aa\
4DD/	.	.	.	.	.	.	.	.	4D/	.	8r	.	8r	.	.	.	.	.	.
.	.	.	.	.	.	.	.	.	.	.	8f#/	.	8a/	.	.	.	.	.	.
2r	.	.	.	.	.	.	.	.	2r	.	8g/L	.	8b\L	.	.	.	2r	.	2r
.	.	.	.	.	.	.	.	.	.	.	8f#/	.	8a\	.	.	.	.	.	.
.	.	.	.	.	.	.	.	.	.	.	8b/	.	8dd\	.	.	.	.	.	.
.	.	.	.	.	.	.	.	.	.	.	8a/J	.	8cc\J	.	.	.	.	.	.
=10	=10	=10	=10	=10	=10	=10	=10	=10	=10	=10	=10	=10	=10	=10	=10	=10	=10	=10	=10
!	!	!	!	!	!	!	!	!	!	!	!	!	!	!	!	!	!	!	!LO:LB:g=original
.	.	.	.	.	.	.	.	.	.	.	8qqa/	.	8qqcc/	.	.	.	.	.	.
!	!	!	!	!	!	!	!	!	!	!	!	!	!	!	!	!	!	!	!LO:TX:a:t=problem:takt dopisany ołówkiem
4G\	.	.	1ryy	1ryy	.	.	.	.	4g\	.	4g/	.	4b\	.	1ryy	1ryy	2gg^\	.	2bb\
4GG/	.	.	.	.	.	.	.	.	4G/	.	8r	.	8r	.	.	.	.	.	.
.	.	.	.	.	.	.	.	.	.	.	8b\	.	8dd\	.	.	.	.	.	.
2r	.	.	.	.	.	.	.	.	2r	.	8cc\L	.	8ee\L	.	.	.	2r	.	2r
.	.	.	.	.	.	.	.	.	.	.	8dd\	.	8ff#\	.	.	.	.	.	.
.	.	.	.	.	.	.	.	.	.	.	8ee\	.	8gg\	.	.	.	.	.	.
.	.	.	.	.	.	.	.	.	.	.	8dd\J	.	8ff#\J	.	.	.	.	.	.
=11	=11	=11	=11	=11	=11	=11	=11	=11	=11	=11	=11	=11	=11	=11	=11	=11	=11	=11	=11
!	!	!	!	!	!	!	!	!	!LO:LB:g=original	!	!	!	!	!	!	!	!LO:TX:a:t=2	!	!LO:TX:a:t=2
2C/	.	.	1ryy	1ryy	.	.	.	.	2c\	.	8dd\L	.	8ff#\L	.	1ryy	1ryy	0r	.	0r
.	.	.	.	.	.	.	.	.	.	.	8cc\	.	8ee\	.	.	.	.	.	.
.	.	.	.	.	.	.	.	.	.	.	8cc\	.	8ee\	.	.	.	.	.	.
.	.	.	.	.	.	.	.	.	.	.	8b\J	.	8dd\J	.	.	.	.	.	.
4r	.	.	.	.	.	.	.	.	4r	.	8b\L	.	8dd\L	.	.	.	.	.	.
.	.	.	.	.	.	.	.	.	.	.	8a\	.	8cc\	.	.	.	.	.	.
4C#X/	.	.	.	.	.	.	.	.	4c#X\	.	8a\	.	8cc\	.	.	.	.	.	.
.	.	.	.	.	.	.	.	.	.	.	8g\J	.	8b\J	.	.	.	.	.	.
=12	=12	=12	=12	=12	=12	=12	=12	=12	=12	=12	=12	=12	=12	=12	=12	=12	=12	=12	=12
4D/	6 4	.	1ryy	1ryy	.	.	.	.	4d\	.	2g/	.	2b\	.	1ryy	1ryy	.	.	.
4DD/	5 3	.	.	.	.	.	.	.	4D/	.	.	.	.	.	.	.	.	.	.
4D/	.	.	.	.	.	.	.	.	4d\	.	4f#/	.	4a\	.	.	.	.	.	.
4r	.	.	.	.	.	.	.	.	4r	.	4r	.	4r	.	.	.	.	.	.
=13	=13	=13	=13	=13	=13	=13	=13	=13	=13	=13	=13	=13	=13	=13	=13	=13	=13	=13	=13
!	!	!	!	!	!	!	!	!	!	!	!	!	!	!	!	!	!LO:LB:g=original	!	!
!	!	!	!	!	!	!	!	!	!	!	!	!	!	!	!	!	!	!LO:HP:t=Cres	!
4r	.	p	1ryy	1ryy	00r	.	00r	.	4r	p	4f#/	p	4a/	p	1ryy	1ryy	4ff#\	<	4gg\
4D/	.	.	.	.	.	.	.	.	4d\	.	2f#/	.	2a/	.	.	.	2gg\	.	2aa\
4F#/	6	.	.	.	.	.	.	.	4f#\	.	.	.	.	.	.	.	.	.	.
4C#X/	.	.	.	.	.	.	.	.	4c#X\	.	8g/L	.	8b/L	.	.	.	8gg\L	.	8bb\L
.	.	.	.	.	.	.	.	.	.	.	8e/J	.	8g/J	.	.	.	8ff#\J	.	8gg\J
=14	=14	=14	=14	=14	=14	=14	=14	=14	=14	=14	=14	=14	=14	=14	=14	=14	=14	=14	=14
!	!	!	!	!	!	!	!	!	!	!	!LO:LB:g=original	!	!	!	!	!	!	!	!
4D/	.	.	1ryy	1ryy	.	.	.	.	4d\	.	4d/	.	4f#/	.	1ryy	1ryy	4dd\	.	4ff#\
4DD/	6	.	.	.	.	.	.	.	4D/	.	2d/	.	2f#/	.	.	.	2dd\	.	2ff#\
4FF#/	.	.	.	.	.	.	.	.	4F#/	.	.	.	.	.	.	.	.	.	.
4AA/	3#	.	.	.	.	.	.	.	4A/	.	8e/L	.	8g/L	.	.	.	8ee\L	.	8gg\L
.	.	.	.	.	.	.	.	.	.	.	8c#X/J	.	8e/J	.	.	.	8cc#X\J	.	8ee\J
=15	=15	=15	=15	=15	=15	=15	=15	=15	=15	=15	=15	=15	=15	=15	=15	=15	=15	=15	=15
!LO:LB:g=originalm	!	!	!	!	!	!	!	!	!	!	!	!	!	!	!	!	!	!	!
4D/	.	.	1ryy	1ryy	.	.	.	.	4d\	.	4A/	.	4d/	.	1ryy	1ryy	4dd\	.	4dd\
*	*	*	*	*	*	*	*	*	*	*	*	*	*	*	*	*	*Xtuplet	*	*Xtuplet
!	!	!	!	!	!	!	!	!	!	!	!	!	!LO:TUP:b	!	!	!	!	!	!
4r	.	.	.	.	.	.	.	.	4d\	.	4d/	.	(12d/L	.	.	.	4r	.	12dd\L
.	.	.	.	.	.	.	.	.	.	.	.	.	12e/	.	.	.	.	.	12ee\
.	.	.	.	.	.	.	.	.	.	.	.	.	12f#/J)	.	.	.	.	.	12ff#\J
!	!	!	!	!	!	!	!	!	!	!	!	!	!LO:LB:g=original	!	!	!	!	!	!
4C#X/	6	.	.	.	.	.	.	.	4c#X\	.	4.c#X/	.	4.e/	.	.	.	4.cc#X\	.	(4.ee\
4AA/	.	.	.	.	.	.	.	.	4A\	.	.	.	.	.	.	.	.	.	.
.	.	.	.	.	.	.	.	.	.	.	16d/LL	.	16f#/LL	.	.	.	16dd\LL	.	16ff#\LL)
.	.	.	.	.	.	.	.	.	.	.	16e/JJ	.	16g/JJ	.	.	.	16ee\JJ	.	16gg\JJ
=16	=16	=16	=16	=16	=16	=16	=16	=16	=16	=16	=16	=16	=16	=16	=16	=16	=16	=16	=16
.	.	.	.	.	.	.	.	.	.	.	.	.	16qqg/	.	.	.	.	.	.
4D/	.	.	1ryy	1ryy	.	.	.	.	4d\	.	4.d/	.	4.f#/	.	1ryy	1ryy	4.dd\	.	4ff#\
4DD/	.	.	.	.	.	.	.	.	4D/	.	.	.	.	.	.	.	.	.	8r
.	.	.	.	.	.	.	.	.	.	.	8g/	.	8b/	.	.	.	8gg\	.	8bb\
4r	.	.	.	.	.	.	.	.	4r	.	8g/L	.	8b/L	.	.	.	8gg\L	.	8bb\L
.	.	.	.	.	.	.	.	.	.	.	8f#/	.	8a/	.	.	.	8ff#\	.	8aa\
4C#X/	6 5	.	.	.	.	.	.	.	4c#X\	.	8f#/	.	8a/	.	.	.	8ff#\	.	8aa\
.	.	.	.	.	.	.	.	.	.	.	8e/J	.	8g/J	.	.	.	8ee\J	.	8gg\J
=17	=17	=17	=17	=17	=17	=17	=17	=17	=17	=17	=17	=17	=17	=17	=17	=17	=17	=17	=17
4D/	.	.	1ryy	1ryy	00r	.	00r	.	4d\	.	4d/	.	4f#/	.	1ryy	1ryy	4dd\	.	4ff#\
*	*	*	*	*	*	*	*	*	*	*	*	*	*Xtuplet	*	*	*	*	*	*
4r	.	.	.	.	.	.	.	.	4d\	.	4d/	.	12d/L	.	.	.	4r	.	12dd\L
.	.	.	.	.	.	.	.	.	.	.	.	.	12e/	.	.	.	.	.	12ee\
.	.	.	.	.	.	.	.	.	.	.	.	.	12f#/J	.	.	.	.	.	12ff#\J
4C#X/	6	.	.	.	.	.	.	.	4c#X\	.	4.c#X/	.	4.e/	.	.	.	(4.cc#X\	.	4.ee\
4AA/	.	.	.	.	.	.	.	.	4A\	.	.	.	.	.	.	.	.	.	.
.	.	.	.	.	.	.	.	.	.	.	16d/LL	.	16f#/LL	.	.	.	16dd\LL	.	16ff#\LL
.	.	.	.	.	.	.	.	.	.	.	16e/JJ	.	16g/JJ	.	.	.	16ee\JJ)	.	16gg\JJ
=18	=18	=18	=18	=18	=18	=18	=18	=18	=18	=18	=18	=18	=18	=18	=18	=18	=18	=18	=18
.	.	.	.	.	.	.	.	.	.	.	8qqe/	.	8qqg/	.	.	.	.	.	.
4D/	.	.	1ryy	1ryy	.	.	.	.	4d\	.	4.d/	.	4.f#/	.	1ryy	1ryy	4dd\	.	4ff#\
4DD/	.	.	.	.	.	.	.	.	4D/	.	.	.	.	.	.	.	8r	.	8r
.	.	.	.	.	.	.	.	.	.	.	8b/	.	8dd\	.	.	.	8bb\	.	8ddd\
2r	.	.	.	.	.	.	.	.	2r	.	(8b/L	.	(8dd\L	.	.	.	8bb\L	.	8ddd\L
.	.	.	.	.	.	.	.	.	.	.	8a/)	.	8cc#X\)	.	.	.	8aa\	.	8ccc#X\
.	.	.	.	.	.	.	.	.	.	.	(8a/	.	(8cc#\	.	.	.	8aa\	.	8ccc#\
.	.	.	.	.	.	.	.	.	.	.	8g/J)	.	8b\J)	.	.	.	8gg\J	.	8bb\J
=19	=19	=19	=19	=19	=19	=19	=19	=19	=19	=19	=19	=19	=19	=19	=19	=19	=19	=19	=19
!	!	!	!	!	!	!	!	!	!	!	!	!	!	!	!	!	!LO:LB:g=original	!	!LO:LB:g=original
4D\	.	.	1ryy	1ryy	.	.	.	.	4d\	.	8g/L	.	(8b\L	.	1ryy	1ryy	8gg\L	.	8bb\L
.	.	.	.	.	.	.	.	.	.	.	8f#/J	.	8a\J)	.	.	.	8ff#\J	.	8aa\J
4DD/	.	.	.	.	.	.	.	.	4D/	.	8r	.	8r	.	.	.	8r	.	8r
.	.	.	.	.	.	.	.	.	.	.	8g/	.	8b\	.	.	.	8gg\	.	8bb\
4r	.	.	.	.	.	.	.	.	4r	.	(8g/L	.	(8b\L	.	.	.	8gg\L	.	8bb\L
.	.	.	.	.	.	.	.	.	.	.	8f#/)	.	8a\)	.	.	.	8ff#\	.	8aa\
4C#X/	6 5	.	.	.	.	.	.	.	4c#X\	.	(8f#/	.	(8a\	.	.	.	8ff#\	.	8aa\
.	.	.	.	.	.	.	.	.	.	.	8e/J)	.	8g\J)	.	.	.	8ee\J	.	8gg\J
=20	=20	=20	=20	=20	=20	=20	=20	=20	=20	=20	=20	=20	=20	=20	=20	=20	=20	=20	=20
4D/	.	.	1ryy	1ryy	.	.	.	.	4d\	.	4d/	.	12f#/L	.	1ryy	1ryy	4dd\	.	12ff#\L
.	.	.	.	.	.	.	.	.	.	.	.	.	12e/	.	.	.	.	.	12ee\
.	.	.	.	.	.	.	.	.	.	.	.	.	12f#/J	.	.	.	.	.	12ff#\J
4G\	6	.	.	.	.	.	.	.	4g\	.	4B/	.	12g/L	.	.	.	(12b\L	.	12gg\L
.	.	.	.	.	.	.	.	.	.	.	.	.	12f#/	.	.	.	12a\	.	12ff#\
.	.	.	.	.	.	.	.	.	.	.	.	.	12e/J	.	.	.	12g\J)	.	12ee\J
4A\	4#	.	.	.	.	.	.	.	4a\	.	4A/	.	4d/	.	.	.	4f#/	.	4dd\
4AA/	.	.	.	.	.	.	.	.	4A/	.	4c#X/	.	4e/	.	.	.	4e/	.	4cc#X\
=21	=21	=21	=21	=21	=21	=21	=21	=21	=21	=21	=21	=21	=21	=21	=21	=21	=21	=21	=21
!	!	!	!	!	!	!	!	!	!LO:LB:g=original	!	!LO:LB:g=original	!	!LO:LB:g=original	!	!	!	!	!	!
4D\	.	.	1ryy	1ryy	00r	.	00r	.	4d\	<	2d/	<	4d/	.	1ryy	1ryy	2f#/	.	2dd\
!	!	!	!	!	!	!	!	!	!	!	!	!	!	!LO:HP:t=Cres	!	!	!	!	!
!LO:TX:b:i:t=Tasto	!	!	!	!	!	!	!	!	!	!	!	!	!	!LO:HP:a	!	!	!	!	!
4d\	.	.	.	.	.	.	.	.	4dd\	.	.	.	(16dd\LL	<	.	.	.	.	.
.	.	.	.	.	.	.	.	.	.	.	.	.	16cc#X\	.	.	.	.	.	.
.	.	.	.	.	.	.	.	.	.	.	.	.	16dd\	.	.	.	.	.	.
.	.	.	.	.	.	.	.	.	.	.	.	.	16ee\JJ)	.	.	.	.	.	.
4d\	.	.	.	.	.	.	.	.	4dd\	.	[2dd\	.	4dd\	.	.	.	2r	.	2r
4d\	.	.	.	.	.	.	.	.	4dd\	.	.	.	4dd\	.	.	.	.	.	.
=22	=22	=22	=22	=22	=22	=22	=22	=22	=22	=22	=22	=22	=22	=22	=22	=22	=22	=22	=22
!LO:LB:g=original	!	!	!	!	!	!	!	!	!	!	!	!	!	!	!	!	!LO:TX:a:t=5	!	!LO:TX:a:t=5
4d\	.	.	1ryy	1ryy	.	.	.	.	4dd\	.	2dd\]	.	4.ee\	.	1ryy	1ryy	00r	.	00r
4d\	.	.	.	.	.	.	.	.	4dd\	.	.	.	.	.	.	.	.	.	.
.	.	.	.	.	.	.	.	.	.	.	.	.	16ff#\LL	.	.	.	.	.	.
.	.	.	.	.	.	.	.	.	.	.	.	.	16gg\JJ	.	.	.	.	.	.
4d\	.	.	.	.	.	.	.	.	4dd\	.	[2ccn\	.	8aa\L	.	.	.	.	.	.
.	.	.	.	.	.	.	.	.	.	.	.	.	8gg\	.	.	.	.	.	.
4d\	.	.	.	.	.	.	.	.	4dd\	.	.	.	8ff#\	.	.	.	.	.	.
.	.	.	.	.	.	.	.	.	.	.	.	.	8ee\J	.	.	.	.	.	.
=23	=23	=23	=23	=23	=23	=23	=23	=23	=23	=23	=23	=23	=23	=23	=23	=23	=23	=23	=23
*rep	*	*	*	*	*	*	*	*	*	*	*	*	*	*	*	*	*	*	*
4d\	.	.	1ryy	1ryy	.	.	.	.	4dd\	.	2cc\]	.	(8ee\L	.	1ryy	1ryy	.	.	.
.	.	.	.	.	.	.	.	.	.	.	.	.	8dd\	.	.	.	.	.	.
4d\	.	.	.	.	.	.	.	.	4dd\	.	.	.	8cc#X\	.	.	.	.	.	.
.	.	.	.	.	.	.	.	.	.	.	.	.	8dd\J)	.	.	.	.	.	.
4d\	.	.	.	.	.	.	.	.	4dd\	.	2b\	.	8gg\L	.	.	.	.	.	.
.	.	.	.	.	.	.	.	.	.	.	.	.	8ff#\	.	.	.	.	.	.
4d\	.	.	.	.	.	.	.	.	4dd\	.	.	.	8ee\	.	.	.	.	.	.
.	.	.	.	.	.	.	.	.	.	.	.	.	8dd\J	.	.	.	.	.	.
*Xrep	*	*	*	*	*	*	*	*	*	*	*	*	*	*	*	*	*	*	*
=24	=24	=24	=24	=24	=24	=24	=24	=24	=24	=24	=24	=24	=24	=24	=24	=24	=24	=24	=24
*rep	*	*	*	*	*	*	*	*	*	*	*	*	*	*	*	*	*	*	*
4d\	.	.	1ryy	1ryy	.	.	.	.	4e\	.	2a/	.	4.cc\	.	1ryy	1ryy	.	.	.
4d\	.	.	.	.	.	.	.	.	4e\	.	.	.	.	.	.	.	.	.	.
.	.	.	.	.	.	.	.	.	.	.	.	.	16b\LL	.	.	.	.	.	.
.	.	.	.	.	.	.	.	.	.	.	.	.	16cc\JJ	.	.	.	.	.	.
!	!	!	!	!	!	!	!	!	!	!LO:DY:t=f.	!	!LO:DY:t=for	!	!	!	!	!	!	!
4d\	.	.	.	.	.	.	.	.	4f#\	f ???	4a/	f	4dd\	.	.	.	.	.	.
4d\	.	.	.	.	.	.	.	.	4f#\	.	4a/	.	4cc\	.	.	.	.	.	.
*Xrep	*	*	*	*	*	*	*	*	*	*	*	*	*	*	*	*	*	*	*
=25	=25	=25	=25	=25	=25	=25	=25	=25	=25	=25	=25	=25	=25	=25	=25	=25	=25	=25	=25
!	!	!LO:DY:t=for	!	!	!	!	!	!	!	!	!	!	!	!	!	!	!	!	!
4G\	.	f	1ryy	1ryy	00r	.	00r	.	4g\	.	8a/L	.	(8cc\L	.	1ryy	1ryy	.	.	.
.	.	.	.	.	.	.	.	.	.	.	8g/	.	8b\)	.	.	.	.	.	.
4GG/	.	.	.	.	.	.	.	.	4G/	.	8g/	.	(8b\	.	.	.	.	.	.
.	.	.	.	.	.	.	.	.	.	.	8a/J	.	8dd\J)	.	.	.	.	.	.
4r	.	.	.	.	.	.	.	.	4r	.	4b/	.	(8dd\L	.	.	.	.	.	.
.	.	.	.	.	.	.	.	.	.	.	.	.	8gg\)	.	.	.	.	.	.
4GG/	.	.	.	.	.	.	.	.	4G/	.	8b/L	.	8gg\	.	.	.	.	.	.
.	.	.	.	.	.	.	.	.	.	.	8g/J	.	8b\J	.	.	.	.	.	.
=26	=26	=26	=26	=26	=26	=26	=26	=26	=26	=26	=26	=26	=26	=26	=26	=26	=26	=26	=26
.	.	.	.	.	.	.	.	.	.	.	.	.	16qqcc/	.	.	.	.	.	.
4D/	6 4:	.	1ryy	1ryy	.	.	.	.	4d\	.	2g/	.	2b\	.	1ryy	1ryy	1r	.	1r
4DD/	.	.	.	.	.	.	.	.	4D/	.	.	.	.	.	.	.	.	.	.
4D/	5 3	.	.	.	.	.	.	.	4d\	.	4f#/	.	4a\	.	.	.	.	.	.
4r	.	.	.	.	.	.	.	.	4r	.	8r	.	8r	.	.	.	.	.	.
.	.	.	.	.	.	.	.	.	.	.	8gg\	.	8bb\	.	.	.	.	.	.
=27	=27	=27	=27	=27	=27	=27	=27	=27	=27	=27	=27	=27	=27	=27	=27	=27	=27	=27	=27
4D/	.	.	1ryy	1ryy	.	.	.	.	4d\	.	(4gg\	.	4bb^\	.	1ryy	1ryy	4r	.	4r
!	!	!	!	!	!	!	!	!	!	!	!LO:TX:a:t=problem:mixed beam	!	!	!	!	!	!	!	!
4r	.	.	.	.	.	.	.	.	4r	.	8.ff#\L)	.	8.aa\L	.	.	.	8r	.	8r
!	!	!	!	!	!	!	!	!	!	!	!	!	!	!	!	!	!	!LO:DY:t=for	!
.	.	.	.	.	.	.	.	.	.	.	.	.	.	.	.	.	8a\	f	8cc\
.	.	.	.	.	.	.	.	.	.	.	16a/Jk	.	16cc\Jk	.	.	.	.	.	.
!	!	!	!	!	!	!	!	!	!	!	!	!	!LO:LB:g=original	!	!	!	!	!	!
4GG/	.	.	.	.	.	.	.	.	4G/	.	(4a/	.	(4cc\	.	.	.	4a\	.	4cc\
!	!	!	!	!	!	!	!	!	!	!	!LO:TX:a:t=problem:mixed beam	!	!	!	!	!	!	!	!
4r	.	.	.	.	.	.	.	.	4r	.	8.g/L)	.	8.b\L)	.	.	.	4g\	.	4b\
.	.	.	.	.	.	.	.	.	.	.	16gg\Jk	.	16bb\Jk	.	.	.	.	.	.
=28	=28	=28	=28	=28	=28	=28	=28	=28	=28	=28	=28	=28	=28	=28	=28	=28	=28	=28	=28
4D/	.	.	1ryy	1ryy	.	.	.	.	4d\	.	4gg\	.	4bb^\	.	1ryy	1ryy	4r	.	4r
!	!	!	!	!	!	!	!	!	!	!	!LO:TX:a:t=problem:mixed beam	!	!	!	!	!	!	!	!
4r	.	.	.	.	.	.	.	.	4r	.	8.ff#\L	.	8.aa\L	.	.	.	8r	.	8r
.	.	.	.	.	.	.	.	.	.	.	.	.	.	.	.	.	8a\	.	8cc\
.	.	.	.	.	.	.	.	.	.	.	16a/Jk	.	16cc\Jk	.	.	.	.	.	.
4GG/	.	.	.	.	.	.	.	.	4G/	.	(4a/	.	4cc\	.	.	.	4a\	.	4cc\
4r	.	.	.	.	.	.	.	.	4r	.	8.g/L)	.	8.b\L	.	.	.	8.g\L	.	8.b\L
.	.	.	.	.	.	.	.	.	.	.	16b/Jk	.	16dd\Jk	.	.	.	16b\Jk	.	16cc\Jk
=29	=29	=29	=29	=29	=29	=29	=29	=29	=29	=29	=29	=29	=29	=29	=29	=29	=29	=29	=29
4C/	.	.	1ryy	1ryy	00r	.	00r	.	4c\	.	8cc\L	.	8ee\L	.	1ryy	1ryy	8cc\L	.	8ee\L
.	.	.	.	.	.	.	.	.	.	.	8ee\	.	8ccc\	.	.	.	8ee\	.	8ccc\
4C/	.	.	.	.	.	.	.	.	4c\	.	8dd\	.	8bb\	.	.	.	8dd\	.	8bb\
.	.	.	.	.	.	.	.	.	.	.	8cc\J	.	8aa\J	.	.	.	8cc\J	.	8aa\J
!	!	!	!	!	!	!	!	!	!	!	!LO:LB:g=original	!	!	!	!	!	!LO:LB:g=original	!	!
4D/	4	.	.	.	.	.	.	.	4d\	.	8cc\L	.	8aa\L	.	.	.	8cc\L	.	8aa\L
.	3	.	.	.	.	.	.	.	.	.	8b\	.	8gg\	.	.	.	8b\	.	8gg\
4DD/	.	.	.	.	.	.	.	.	4D/	.	8b\	.	8gg\	.	.	.	8a\	.	8gg\
.	.	.	.	.	.	.	.	.	.	.	8a\J	.	8ff#\J	.	.	.	8g\J	.	8ff#\J
=30	=30	=30	=30	=30	=30	=30	=30	=30	=30	=30	=30	=30	=30	=30	=30	=30	=30	=30	=30
!LO:LB:g=original	!	!	!	!	!	!	!	!	!LO:LB:g=original	!	!	!	!	!	!	!	!	!	!LO:LB:g=original
4GG/	.	.	1ryy	1ryy	.	.	.	.	4G/	.	(2a/	.	2ff#\	.	1ryy	1ryy	2a\	.	2ff#\
4GG/	.	.	.	.	.	.	.	.	4G/	.	.	.	.	.	.	.	.	.	.
4BB/	.	.	.	.	.	.	.	.	4B/	.	4b/)	.	4gg\	.	.	.	4b\	.	4gg\
4GG/	.	.	.	.	.	.	.	.	4G/	.	8r	.	8r	.	.	.	4r	.	4r
.	.	.	.	.	.	.	.	.	.	.	8gg\	.	8gg\	p	.	.	.	.	.
=31	=31	=31	=31	=31	=31	=31	=31	=31	=31	=31	=31	=31	=31	=31	=31	=31	=31	=31	=31
4D\	.	.	1ryy	1ryy	.	.	.	.	4d\	.	(4gg\	.	4bb\	.	1ryy	1ryy	4r	.	4r
4r	.	.	.	.	.	.	.	.	4r	.	8.ff#\L)	.	8.aa\L	.	.	.	8r	.	8r
.	.	.	.	.	.	.	.	.	.	.	.	.	.	.	.	.	8a\	.	8cc'\
.	.	.	.	.	.	.	.	.	.	.	16a\Jk	.	16cc\Jk	.	.	.	.	.	.
4G\	.	.	.	.	.	.	.	.	4d\	.	4a\	.	4cc\	.	.	.	4a\	.	4cc^\
4r	.	.	.	.	.	.	.	.	4r	.	8.g\L	.	8.b\L	.	.	.	4g\	.	4b\
.	.	.	.	.	.	.	.	.	.	.	16gg\Jk	.	16bb\Jk	.	.	.	.	.	.
=32	=32	=32	=32	=32	=32	=32	=32	=32	=32	=32	=32	=32	=32	=32	=32	=32	=32	=32	=32
4D\	.	.	1ryy	1ryy	.	.	.	.	4d\	.	4gg\	.	4bb\	.	1ryy	1ryy	4r	.	4r
4r	.	.	.	.	.	.	.	.	4r	.	8.ff#\L	.	8.aa\L	.	.	.	8r	.	8r
.	.	.	.	.	.	.	.	.	.	.	.	.	.	.	.	.	8a\	.	8cc'\
.	.	.	.	.	.	.	.	.	.	.	16a\Jk	.	16cc\Jk	.	.	.	.	.	.
4G\	.	.	.	.	.	.	.	.	4d\	.	4a\	.	4cc\	.	.	.	4a\	.	4cc^\
4r	.	.	.	.	.	.	.	.	4r	.	8g\	.	8.b\L	.	.	.	8.g\L	.	8.b\L
.	.	.	.	.	.	.	.	.	.	.	8r	.	.	.	.	.	.	.	.
.	.	.	.	.	.	.	.	.	.	.	.	.	16dd\Jk	.	.	.	16b\Jk	.	16dd\Jk
=33	=33	=33	=33	=33	=33	=33	=33	=33	=33	=33	=33	=33	=33	=33	=33	=33	=33	=33	=33
!	!	!	!	!	!	!	!	!	!	!	!	!	!	!LO:DY:t=for	!	!	!	!	!
4c\	.	.	1ryy	1ryy	0r	.	0r	.	4c\	.	8.ee\L	.	8.ee\L	f	1ryy	1ryy	2cc\	.	8.ee\L
.	.	.	.	.	.	.	.	.	.	.	16gg\K	.	16gg\K	.	.	.	.	.	16gg\K
4A\	.	.	.	.	.	.	.	.	4c\	.	8.ff#\	.	8.ff#\	.	.	.	.	.	8.ff#\
.	.	.	.	.	.	.	.	.	.	.	16aa\Jk	.	16aa\Jk	.	.	.	.	.	16aa\Jk
4G\	.	.	.	.	.	.	.	.	4B\	.	8gg\L	.	8gg\L	.	.	.	8cc\L	.	8gg\L
.	.	.	.	.	.	.	.	.	.	.	8ee\	.	8ee\	.	.	.	8dd\	.	8ee\
4c\	.	.	.	.	.	.	.	.	4c\	.	8dd\	.	8dd\	.	.	.	8cc\	.	8dd\
.	.	.	.	.	.	.	.	.	.	.	8cc\J	.	8cc\J	.	.	.	8b\J	.	8cc\J
=34	=34	=34	=34	=34	=34	=34	=34	=34	=34	=34	=34	=34	=34	=34	=34	=34	=34	=34	=34
*2\right	*	*	*	*	*	*	*	*	*	*	*Xtuplet	*	*	*	*	*	*	*	*
!	!	!	!	!	!	!	!	!	!	!	!	!	!LO:PB:g=original	!	!	!	!	!	!
2d\	6 4	.	1ryy	1ryy	.	.	.	.	4d\	.	(12b/L	.	(12b\L	.	1ryy	1ryy	2g\	.	4b\
.	.	.	.	.	.	.	.	.	.	.	12a/	.	12a\	.	.	.	.	.	.
.	.	.	.	.	.	.	.	.	.	.	12g/J)	.	12g\J)	.	.	.	.	.	.
.	.	.	.	.	.	.	.	.	4g\	.	12f#/L	.	(12f#/L	.	.	.	.	.	2gg^\
.	.	.	.	.	.	.	.	.	.	.	12e/	.	12e/	.	.	.	.	.	.
.	.	.	.	.	.	.	.	.	.	.	12d/J	.	12d/J)	.	.	.	.	.	.
2BB\	5 3	.	.	.	.	.	.	.	4g\	.	2aT/	.	2aT/	.	.	.	2a\	.	.
.	.	.	.	.	.	.	.	.	4f#\	.	.	.	.	.	.	.	.	.	4ff#sSs\
=35	=35	=35	=35	=35	=35	=35	=35	=35	=35	=35	=35	=35	=35	=35	=35	=35	=35	=35	=35
2G\	.	.	1ryy	1ryy	1r	.	1r	.	4g\	.	4g/	.	4g/	.	1ryy	1ryy	2g\	.	2gg\
.	.	.	.	.	.	.	.	.	4d\	.	4d/	.	4d/	.	.	.	.	.	.
2r	.	.	.	.	.	.	.	.	4G/	.	4G/	.	4G/	.	.	.	2r	.	2r
.	.	.	.	.	.	.	.	.	4r	.	4r	.	4r	.	.	.	.	.	.
=36	=36	=36	=36	=36	=36	=36	=36	=36	=36	=36	=36	=36	=36	=36	=36	=36	=36	=36	=36
*	*	*	*	*	*2\right	*	*2\right	*	*	*	*	*	*	*	*	*	*	*	*
!	!	!	!	!	!	!	!	!	!	!	!LO:LB:g=original	!	!	!	!	!	!	!	!LO:TX:a:t=4
4G\	.	p	1ryy	1ryy	2b\	Vir-	(2dd\	Vir-	4g\	p	2dd\	p	[2dd\	p	1ryy	1ryy	00r	.	00r
4G\	.	.	.	.	.	.	.	.	4g\	.	.	.	.	.	.	.	.	.	.
4G\	.	.	.	.	8b\L	.	8dd\L	.	4g\	.	8b\L	.	8dd\L]	.	.	.	.	.	.
.	.	.	.	.	8cc\J	.	8ee\J)	.	.	.	8cc\	.	8ee\	.	.	.	.	.	.
4G\	.	.	.	.	8a\L	-go	8ff#\L	-go	4g\	.	8a\	.	8ff#\	.	.	.	.	.	.
.	.	.	.	.	8b\J	.	8gg\J	.	.	.	8b\J	.	8gg\J	.	.	.	.	.	.
=37	=37	=37	=37	=37	=37	=37	=37	=37	=37	=37	=37	=37	=37	=37	=37	=37	=37	=37	=37
.	.	.	.	.	8qqdd/	.	8qqff#/	.	.	.	8qqdd/	.	8qqff#/	.	.	.	.	.	.
4G\	6 4	.	1ryy	1ryy	2cc\	vir	2ee\	vir	4g\	.	2cc\	.	2ee\	.	1ryy	1ryy	.	.	.
4G\	.	.	.	.	.	.	.	.	4g\	.	.	.	.	.	.	.	.	.	.
!LO:LB:g=original	!	!	!	!	!	!	!	!	!	!	!	!	!	!	!	!	!	!	!
4G\	5 3	.	.	.	4b\	-go	4dd\	-go	4g\	.	4b\	.	4dd\	.	.	.	.	.	.
4G\	.	.	.	.	4r	.	4r	.	4g\	.	4r	.	4r	.	.	.	.	.	.
=38	=38	=38	=38	=38	=38	=38	=38	=38	=38	=38	=38	=38	=38	=38	=38	=38	=38	=38	=38
.	.	.	.	.	.	.	.	.	.	.	8qqb/	.	16qqdd/	.	.	.	.	.	.
2C\	.	.	1ryy	1ryy	4.a\	vir	4.cc\	vir	2c\	.	4a/	.	4cc\	.	1ryy	1ryy	.	.	.
.	.	.	.	.	.	.	.	.	.	.	2g/	.	2b\	.	.	.	.	.	.
.	.	.	.	.	8g\	-gi-	8b\	-gi-	.	.	.	.	.	.	.	.	.	.	.
2D\	.	.	.	.	4g\	-nium	4b\	-nium	2e\	.	.	.	.	.	.	.	.	.	.
.	.	.	.	.	4e\	prae-	4a\	pre-	.	.	4f#/	.	4a\	.	.	.	.	.	.
=39	=39	=39	=39	=39	=39	=39	=39	=39	=39	=39	=39	=39	=39	=39	=39	=39	=39	=39	=39
4G\	.	.	1ryy	1ryy	8a\L	-cla-	8cc\L	-cla-	4g\	.	8a/L	.	8cc\L	.	1ryy	1ryy	.	.	.
.	.	.	.	.	8g\	.	8b\	.	.	.	8g/	.	8b\	.	.	.	.	.	.
4G\	.	.	.	.	8cc\	.	8ee\	.	4g\	.	8cc/	.	8ee\	.	.	.	.	.	.
.	.	.	.	.	8b\J	.	8dd\J	.	.	.	8b/J	.	8dd\J	.	.	.	.	.	.
4G\	.	.	.	.	4b\	-ra	4dd\	-ra	4g\	.	4b/	.	4dd\	.	.	.	.	.	.
4G\	.	.	.	.	4r	.	4r	.	4g\	.	4r	.	4r	.	.	.	.	.	.
=40	=40	=40	=40	=40	=40	=40	=40	=40	=40	=40	=40	=40	=40	=40	=40	=40	=40	=40	=40
!	!	!	!	!	!	!	!LO:TX:a:t=4	!	!LO:LB:g=original	!	!	!	!	!	!	!	!LO:LB:g=original	!	!
4GG/	.	.	1ryy	1ryy	1r	.	00r	.	4G/	.	2B/	.	2d/	.	1ryy	1ryy	2b\	.	2dd\
4GG/	.	.	.	.	.	.	.	.	4G/	.	.	.	.	.	.	.	.	.	.
4GG/	.	.	.	.	.	.	.	.	4G/	.	8B/L	.	8d/L	.	.	.	(8b\L	.	8dd\L
.	.	.	.	.	.	.	.	.	.	.	8c/	.	8e/	.	.	.	8cc\)	.	8ee\
4GG/	.	.	.	.	.	.	.	.	4G/	.	8A/	.	8f#/	.	.	.	(8dd\	.	8ff#\
.	.	.	.	.	.	.	.	.	.	.	8B/J	.	8g/J	.	.	.	8ee\J)	.	8gg\J
=41	=41	=41	=41	=41	=41	=41	=41	=41	=41	=41	=41	=41	=41	=41	=41	=41	=41	=41	=41
.	.	.	.	.	.	.	.	.	.	.	.	.	4qqf#/	.	.	.	.	.	.
4GG/	6 4	.	1ryy	1ryy	1r	.	.	.	4G/	.	2c/	.	2e/	.	1ryy	1ryy	2b\	.	2ee\
4GG/	.	.	.	.	.	.	.	.	4G/	.	.	.	.	.	.	.	.	.	.
4GG/	5 3	.	.	.	.	.	.	.	4G/	.	4B/	.	4d/	.	.	.	4b\	.	4dd\
4GG/	.	.	.	.	.	.	.	.	4G/	.	4r	.	4r	.	.	.	4r	.	4r
=42	=42	=42	=42	=42	=42	=42	=42	=42	=42	=42	=42	=42	=42	=42	=42	=42	=42	=42	=42
!	!	!	!	!	!	!	!	!	!	!	!	!	!	!	!	!	!	!	!LO:LB:g=original
.	.	.	.	.	.	.	.	.	.	.	8qqd/	.	8qqd/	.	.	.	.	.	8qqdd/
2C\	.	.	1ryy	1ryy	1r	.	.	.	2c\	.	4c/	.	4c/	.	1ryy	1ryy	4a\	.	4cc\
.	.	.	.	.	.	.	.	.	.	.	2B/	.	2B/	.	.	.	2g\	.	2b\
2D\	.	.	.	.	.	.	.	.	2d\	.	.	.	.	.	.	.	.	.	.
.	.	.	.	.	.	.	.	.	.	.	4A/	.	4A/	.	.	.	4f#\	.	4a\
=43	=43	=43	=43	=43	=43	=43	=43	=43	=43	=43	=43	=43	=43	=43	=43	=43	=43	=43	=43
!	!	!	!	!	!	!	!	!	!	!	!	!	!LO:LB:g=original	!	!	!	!	!	!
4G\	.	.	1ryy	1ryy	1r	.	.	.	4g\	.	4G/	.	4B/	.	1ryy	1ryy	2g\	.	2b\
4GG/	.	.	.	.	.	.	.	.	4G/	.	8r	.	8r	.	.	.	.	.	.
.	.	.	.	.	.	.	.	.	.	.	8g/	.	8g/	.	.	.	.	.	.
2r	.	.	.	.	.	.	.	.	2r	.	8f#/L	.	8a/L	.	.	.	2r	.	2r
.	.	.	.	.	.	.	.	.	.	.	8g/	.	8g/	.	.	.	.	.	.
.	.	.	.	.	.	.	.	.	.	.	8a/	.	8cc/	.	.	.	.	.	.
.	.	.	.	.	.	.	.	.	.	.	8g/J	.	8b/J	.	.	.	.	.	.
=44	=44	=44	=44	=44	=44	=44	=44	=44	=44	=44	=44	=44	=44	=44	=44	=44	=44	=44	=44
.	.	.	.	.	.	.	.	.	.	.	.	.	8qqb/	.	.	.	.	.	.
!	!	!	!	!	!LO:LB:g=original	!	!	!	!	!	!	!	!	!	!	!	!	!	!
4D\	.	.	1ryy	1ryy	8g\L	vir	8b\L	vir	4d\	.	4f#/	.	4a/	.	1ryy	1ryy	1r	.	1r
.	.	.	.	.	8f#\J	.	8a\J	.	.	.	.	.	.	.	.	.	.	.	.
4DD/	.	.	.	.	4f#\	-go	4a\	-go	4D/	.	8r	.	8r	.	.	.	.	.	.
.	.	.	.	.	.	.	.	.	.	.	8f#/	.	8a/	.	.	.	.	.	.
2r	.	.	.	.	2r	.	2r	.	2r	.	8g/L	.	8b\L	.	.	.	.	.	.
.	.	.	.	.	.	.	.	.	.	.	8f#/	.	8a\	.	.	.	.	.	.
.	.	.	.	.	.	.	.	.	.	.	8b/	.	8dd\	.	.	.	.	.	.
.	.	.	.	.	.	.	.	.	.	.	8a/J	.	8cc\J	.	.	.	.	.	.
=45	=45	=45	=45	=45	=45	=45	=45	=45	=45	=45	=45	=45	=45	=45	=45	=45	=45	=45	=45
!	!	!	!	!	!	!	!LO:LB:g=original	!	!	!	!	!	!	!	!	!	!	!	!
.	.	.	.	.	.	.	.	.	.	.	8qqa/	.	8qqcc/	.	.	.	.	.	.
4G\	.	.	1ryy	1ryy	8a\L	{vir	8cc\L	vir	4g\	.	4g/	.	4b\	.	1ryy	1ryy	1r	.	1r
.	.	.	.	.	8g\J	.	8b\J	.	.	.	.	.	.	.	.	.	.	.	.
4GG/	.	.	.	.	4g\	-go}	4b\	-go	4G/	.	8r	.	8r	.	.	.	.	.	.
.	.	.	.	.	.	.	.	.	.	.	8b\	.	8dd\	.	.	.	.	.	.
2r	.	.	.	.	8cc\L	vir	8ee\L	{vir	2r	.	8cc\L	.	8ee\L	.	.	.	.	.	.
.	.	.	.	.	8dd\J	.	8ff#\J	.	.	.	8dd\	.	8ff#\	.	.	.	.	.	.
.	.	.	.	.	8ee\L	-go	8gg\L	-go}	.	.	8ee\	.	8gg\	.	.	.	.	.	.
.	.	.	.	.	8dd\J	.	8ff#\J	.	.	.	8dd\J	.	8ff#\J	.	.	.	.	.	.
=46	=46	=46	=46	=46	=46	=46	=46	=46	=46	=46	=46	=46	=46	=46	=46	=46	=46	=46	=46
!LO:LB:g=original	!	!	!	!	!	!	!	!	!	!	!	!	!	!	!	!	!	!	!
2C/	.	.	1ryy	1ryy	8dd\L	vir	8ff#\L	vir	2c\	.	8dd\L	.	8ff#\L	.	1ryy	1ryy	1r	.	1r
.	.	.	.	.	8cc\J	.	8ee\J	.	.	.	8cc\	.	8ee\	.	.	.	.	.	.
.	.	.	.	.	8cc\L	-gi-	8ee\L	-gi-	.	.	8cc\	.	8ee\	.	.	.	.	.	.
.	.	.	.	.	8b\J	.	8dd\J	.	.	.	8b\J	.	8dd\J	.	.	.	.	.	.
4r	.	.	.	.	8b\L	-num	8dd\L	-num	4r	.	8b\L	.	8dd\L	.	.	.	.	.	.
.	.	.	.	.	8a\J	.	8cc\J	.	.	.	8a\	.	8cc\	.	.	.	.	.	.
4C#X/	.	.	.	.	8a\L	-pre-	8cc\L	-pre-	4c#X\	.	8a\	.	8cc\	.	.	.	.	.	.
.	.	.	.	.	8g\J	.	8b\J	.	.	.	8g\J	.	8b\J	.	.	.	.	.	.
=47	=47	=47	=47	=47	=47	=47	=47	=47	=47	=47	=47	=47	=47	=47	=47	=47	=47	=47	=47
.	.	.	.	.	8qqa/	.	4qqcc/	.	.	.	8qqa/	.	8qqcc/	.	.	.	.	.	.
4D/	6 4	.	1ryy	1ryy	2g\	-cla-	2b\	-cla-	4d\	.	2g/	.	2b\	.	1ryy	1ryy	1r	.	1r
4DD/	.	.	.	.	.	.	.	.	4D/	.	.	.	.	.	.	.	.	.	.
4FF#/	5 3	.	.	.	4f#\	-ra	4a\	-ra	4F#/	.	4f#/	.	4a\	.	.	.	.	.	.
4AA/	.	.	.	.	4r	.	4r	.	4A/	.	4r	.	4r	.	.	.	.	.	.
=48	=48	=48	=48	=48	=48	=48	=48	=48	=48	=48	=48	=48	=48	=48	=48	=48	=48	=48	=48
!	!	!	!	!	!	!	!LO:TX:a:t=4	!	!	!	!	!	!	!	!	!	!	!	!
4D\	.	.	1ryy	1ryy	2a\	Vir-	00r	.	4d\	.	4r	.	2aa\	.	1ryy	1ryy	1r	.	1r
4D\	.	.	.	.	.	.	.	.	4d\	.	4f#/	.	.	.	.	.	.	.	.
4F#\	6	.	.	.	2dd\	-go	.	.	4f#\	.	4a/	.	2ddd\	.	.	.	.	.	.
4D\	.	.	.	.	.	.	.	.	4d\	.	4f#/	.	.	.	.	.	.	.	.
=49	=49	=49	=49	=49	=49	=49	=49	=49	=49	=49	=49	=49	=49	=49	=49	=49	=49	=49	=49
4E\	6|:	.	1ryy	1ryy	2dd\	vir	.	.	4e\	.	4g/	.	[2ddd\	.	1ryy	1ryy	1r	.	1r
4EE/	.	.	.	.	.	.	.	.	4E/	.	4g/	.	.	.	.	.	.	.	.
4E\	.	.	.	.	8dd\L	.	.	.	4e\	.	4g/	.	8ddd\L]	.	.	.	.	.	.
.	.	.	.	.	8cc#X\J	.	.	.	.	.	.	.	8ccc#X\	.	.	.	.	.	.
4D\	6	.	.	.	8cc#\L	-gi-	.	.	4d\	.	4f#/	.	8ccc#\	.	.	.	.	.	.
.	.	.	.	.	8b\J	.	.	.	.	.	.	.	8bb\J	.	.	.	.	.	.
=50	=50	=50	=50	=50	=50	=50	=50	=50	=50	=50	=50	=50	=50	=50	=50	=50	=50	=50	=50
.	.	.	.	.	8qqb/	.	.	.	.	.	.	.	8qqbb/	.	.	.	.	.	.
!	!	!	!	!	!LO:LB:g=original	!	!	!	!	!	!	!	!	!	!	!	!	!	!
4Cn/	5	.	1ryy	1ryy	4.a\	-num	.	.	4c#X\	.	4e/	.	4.aa\	.	1ryy	1ryy	1r	.	1r
4AA/	.	.	.	.	.	.	.	.	4A\	.	4c#X/	.	.	.	.	.	.	.	.
.	.	.	.	.	8b\	.	.	.	.	.	.	.	8bb\	.	.	.	.	.	.
!	!	!	!	!	!	!	!	!	!LO:LB:g=original	!	!	!	!LO:LB:g=original	!	!	!	!	!	!
4BB/	.	.	.	.	4a\	.	.	.	4B\	.	4d/	.	8bb\L	.	.	.	.	.	.
.	.	.	.	.	.	.	.	.	.	.	.	.	8aa\J	.	.	.	.	.	.
4C/	5	.	.	.	4g\	-pre-	.	.	4c#\	.	4e/	.	8aa\L	.	.	.	.	.	.
.	.	.	.	.	.	.	.	.	.	.	.	.	8gg\J	.	.	.	.	.	.
=51	=51	=51	=51	=51	=51	=51	=51	=51	=51	=51	=51	=51	=51	=51	=51	=51	=51	=51	=51
!	!	!	!	!	!	!	!	!	!	!	!LO:LB:g=original	!	!	!	!	!	!	!	!
.	.	.	.	.	8qqa/	.	.	.	.	.	.	.	8qqaa/	.	.	.	.	.	.
4D/	4	.	1ryy	1ryy	2g\	-cla-	.	.	4d\	.	4A/	.	2gg\	.	1ryy	1ryy	1r	.	1r
4DD/	3	.	.	.	.	.	.	.	4D/	.	4A/	.	.	.	.	.	.	.	.
4D/	.	.	.	.	4f#\	-ra	.	.	4d\	.	4f#/	.	4ff#\	.	.	.	.	.	.
4E/	.	.	.	.	4r	.	.	.	4e\	.	4g/	.	4r	.	.	.	.	.	.
=52	=52	=52	=52	=52	=52	=52	=52	=52	=52	=52	=52	=52	=52	=52	=52	=52	=52	=52	=52
!	!	!	!	!	!LO:TX:a:t=6	!	!	!	!	!	!	!	!	!	!	!	!	!	!
4F#\	6	.	1ryy	1ryy	00r	.	2.dd\	mi-	4f#\	.	4a/	.	2.dd\	.	1ryy	1ryy	1r	.	1r
4F#\	.	.	.	.	.	.	.	.	4f#\	.	4a/	.	.	.	.	.	.	.	.
4F#\	.	.	.	.	.	.	.	.	4f#\	.	4a/	.	.	.	.	.	.	.	.
4F#\	.	.	.	.	.	.	8aa\L	-hi-	4f#\	.	4a/	.	8aa\L	.	.	.	.	.	.
.	.	.	.	.	.	.	8ff#\J	.	.	.	.	.	8ff#\J	.	.	.	.	.	.
=53	=53	=53	=53	=53	=53	=53	=53	=53	=53	=53	=53	=53	=53	=53	=53	=53	=53	=53	=53
.	.	.	.	.	.	.	4qqff#/	.	.	.	.	.	8qqff#/	.	.	.	.	.	.
4r	.	.	1ryy	1ryy	.	.	2.ee\	-jam	4r	.	4r	.	2.ee\	.	1ryy	1ryy	1r	.	1r
4G\	6	.	.	.	.	.	.	.	4g\	.	4b/	.	.	.	.	.	.	.	.
!LO:LB:g=original	!	!	!	!	!	!	!	!	!	!	!	!	!	!	!	!	!	!	!
4G\	.	.	.	.	.	.	.	.	4g\	.	4b/	.	.	.	.	.	.	.	.
4G\	.	.	.	.	.	.	4gg\	non-	4g\	.	4b/	.	4gg\	.	.	.	.	.	.
=54	=54	=54	=54	=54	=54	=54	=54	=54	=54	=54	=54	=54	=54	=54	=54	=54	=54	=54	=54
2A\	.	.	1ryy	1ryy	.	.	8gg\L	-sis	2a\	.	8b/L	.	8gg\L	.	1ryy	1ryy	1r	.	1r
.	.	.	.	.	.	.	8ff#\J	.	.	.	8a/	.	8ff#\	.	.	.	.	.	.
.	.	.	.	.	.	.	8ff#\L	a-	.	.	8a/	.	8ff#\	.	.	.	.	.	.
.	.	.	.	.	.	.	8ee\J	.	.	.	8g/J	.	8ee\J	.	.	.	.	.	.
2AA/	7 #	.	.	.	.	.	8ee\L	-ma-	2A/	.	8g/L	.	8ee\L	.	.	.	.	.	.
.	.	.	.	.	.	.	8dd\	.	.	.	8f#/	.	8dd\	.	.	.	.	.	.
.	.	.	.	.	.	.	8dd\	.	.	.	8f#/	.	8dd\	.	.	.	.	.	.
.	.	.	.	.	.	.	8cc#X\J	.	.	.	8e/J	.	8cc#X\J	.	.	.	.	.	.
=55	=55	=55	=55	=55	=55	=55	=55	=55	=55	=55	=55	=55	=55	=55	=55	=55	=55	=55	=55
.	.	.	.	.	.	.	4qqcc/	.	.	.	8qqe/	.	8qqcc/	.	.	.	.	.	.
4DD/	.	.	1ryy	1ryy	.	.	2dd\	-ra	4D/	.	2f#/	.	2dd\	.	1ryy	1ryy	1r	.	1r
4FF#/	.	.	.	.	.	.	.	.	4F#/	.	.	.	.	.	.	.	.	.	.
4AA/	.	.	.	.	.	.	2r	.	4A/	.	2r	.	2r	.	.	.	.	.	.
4D/	.	.	.	.	.	.	.	.	4d/	.	.	.	.	.	.	.	.	.	.
=56	=56	=56	=56	=56	=56	=56	=56	=56	=56	=56	=56	=56	=56	=56	=56	=56	=56	=56	=56
4C#X/	6|	.	1ryy	1ryy	0r	.	(4.ee\	mi-	4c#X\	.	4r	.	4r	.	1ryy	1ryy	1r	.	1r
4r	.	.	.	.	.	.	.	.	4r	.	4a/	.	4ee\	.	.	.	.	.	.
.	.	.	.	.	.	.	8cc#X\)	.	.	.	.	.	.	.	.	.	.	.	.
4C#/	.	.	.	.	.	.	4a\	-hi-	4c#\	.	4r	.	4r	.	.	.	.	.	.
4r	.	.	.	.	.	.	8r	.	4r	.	4a/	.	4ee\	.	.	.	.	.	.
.	.	.	.	.	.	.	8g/	-jam	.	.	.	.	.	.	.	.	.	.	.
=57	=57	=57	=57	=57	=57	=57	=57	=57	=57	=57	=57	=57	=57	=57	=57	=57	=57	=57	=57
4D/	.	.	1ryy	1ryy	.	.	8f#/L	non-	4d\	.	4r	.	4r	.	1ryy	1ryy	1r	.	1r
.	.	.	.	.	.	.	8a/J	.	.	.	.	.	.	.	.	.	.	.	.
4r	.	.	.	.	.	.	4dd\	-sis	4r	.	4a/	.	4ff#\	.	.	.	.	.	.
4D/	.	.	.	.	.	.	2r	.	4d\	.	4r	.	4r	.	.	.	.	.	.
4r	.	.	.	.	.	.	.	.	4r	.	4a/	.	4ff#\	.	.	.	.	.	.
=58	=58	=58	=58	=58	=58	=58	=58	=58	=58	=58	=58	=58	=58	=58	=58	=58	=58	=58	=58
4C#y/	6	.	1ryy	1ryy	(4.ee\	non-	1r	.	4c\	.	4r	.	4r	.	1ryy	1ryy	1r	.	1r
4r	.	.	.	.	.	.	.	.	4r	.	4a/	.	4ee\	.	.	.	.	.	.
.	.	.	.	.	8cc#X\)	.	.	.	.	.	.	.	.	.	.	.	.	.	.
4C#/	.	.	.	.	4a\	-sis	.	.	4c\	.	4r	.	4r	.	.	.	.	.	.
4r	.	.	.	.	8r	.	.	.	4r	.	4a/	.	4ee\	.	.	.	.	.	.
.	.	.	.	.	8g\	a-	.	.	.	.	.	.	.	.	.	.	.	.	.
=59	=59	=59	=59	=59	=59	=59	=59	=59	=59	=59	=59	=59	=59	=59	=59	=59	=59	=59	=59
.	.	.	.	.	8qqa/	.	.	.	.	.	.	.	.	.	.	.	.	.	.
4D/	.	.	1ryy	1ryy	4g\	-ma-	1r	.	4d\	.	4r	.	4r	.	1ryy	1ryy	1r	.	1r
4r	.	.	.	.	4f#\	-ra	.	.	4r	.	4a/	.	4ff#\	.	.	.	.	.	.
!	!	!	!	!	!	!	!	!	!	!	!LO:LB:g=orignal	!	!	!	!	!	!	!	!
4D/	.	.	.	.	2r	.	.	.	4d\	.	4r	.	4r	.	.	.	.	.	.
4r	.	.	.	.	.	.	.	.	4r	.	4a/	.	4ff#\	.	.	.	.	.	.
=60	=60	=60	=60	=60	=60	=60	=60	=60	=60	=60	=60	=60	=60	=60	=60	=60	=60	=60	=60
!	!	!	!	!	!	!	!	!	!LO:LB:g=original	!	!	!	!LO:LB:g=original	!	!	!	!	!	!
4r	.	.	1ryy	1ryy	2.g\	mi-	2.b\	mi-	4r	.	4r	.	4r	.	1ryy	1ryy	1r	.	1r
4D/	6 4	.	.	.	.	.	.	.	4d\	.	4gg\	.	4bb\	.	.	.	.	.	.
4D/	.	.	.	.	.	.	.	.	4d\	.	4gg\	.	4bb\	.	.	.	.	.	.
4D/	.	.	.	.	8b\L	-hi-	8dd\L	-hi-	4d\	.	4gg\	.	4bb\	.	.	.	.	.	.
.	.	.	.	.	8g\J	.	8b\J	.	.	.	.	.	.	.	.	.	.	.	.
=61	=61	=61	=61	=61	=61	=61	=61	=61	=61	=61	=61	=61	=61	=61	=61	=61	=61	=61	=61
!LO:LB:g=original	!	!	!	!	!	!	!	!	!	!	!	!	!	!	!	!	!	!	!
.	.	.	.	.	8qqg/	.	4qqb/	.	.	.	.	.	.	.	.	.	.	.	.
4r	.	.	1ryy	1ryy	2.f#\	-jam	2.a\	-jam	4r	.	4r	.	4r	.	1ryy	1ryy	1r	.	1r
4D/	5 3	.	.	.	.	.	.	.	4d\	.	4gg\	.	4aa\	.	.	.	.	.	.
4D/	.	.	.	.	.	.	.	.	4d\	.	4gg\	.	4aa\	.	.	.	.	.	.
4D/	.	.	.	.	4f#\	non-	4dd\	non-	4d\	.	4gg\	.	4aa\	.	.	.	.	.	.
=62	=62	=62	=62	=62	=62	=62	=62	=62	=62	=62	=62	=62	=62	=62	=62	=62	=62	=62	=62
4D/	4 2	.	1ryy	1ryy	2.e\	-sis	(4.g/	-sis	4B/	.	2ee\	.	4.gg\	.	1ryy	1ryy	1r	.	1r
4D/	.	.	.	.	.	.	.	.	4B/	.	.	.	.	.	.	.	.	.	.
.	.	.	.	.	.	.	16e/LL	.	.	.	.	.	16ff#\LL	.	.	.	.	.	.
.	.	.	.	.	.	.	16g/JJ)	.	.	.	.	.	16gg\JJ	.	.	.	.	.	.
4C#X/	6	.	.	.	.	.	4a/	a-	4A/	.	4ee\	.	4aa\	.	.	.	.	.	.
4C#/	5	.	.	.	4e\	a-	4g/	-ma-	4A/	.	4ee\	.	4gg\	.	.	.	.	.	.
=63	=63	=63	=63	=63	=63	=63	=63	=63	=63	=63	=63	=63	=63	=63	=63	=63	=63	=63	=63
.	.	.	.	.	.	.	4qqa/	.	.	.	.	.	.	.	.	.	.	.	.
4D/	4	.	1ryy	1ryy	2e\	-ma-	2g/	-ra	4d\	.	2ee\	.	2gg\	.	1ryy	1ryy	1r	.	1r
4DD/	3	.	.	.	.	.	.	.	4D/	.	.	.	.	.	.	.	.	.	.
4D/	.	.	.	.	4d\	-ra	4f#/	.	4d\	.	4ee\	.	4ff#\	.	.	.	.	.	.
4r	.	.	.	.	8r	.	8r	.	4r	.	8r	.	8r	.	.	.	.	.	.
.	.	.	.	.	8dd\	non-	8ff#\	non-	.	.	8dd\	.	8ff#\	.	.	.	.	.	.
=64	=64	=64	=64	=64	=64	=64	=64	=64	=64	=64	=64	=64	=64	=64	=64	=64	=64	=64	=64
!	!	!	!	!	!LO:LB:g=original	!	!	!	!	!	!	!	!	!	!	!	!	!	!
4AA/	.	.	1ryy	1ryy	(4dd\	-sis	(4ff#\	-sis	4F#/	.	4dd\	.	4ff#\	.	1ryy	1ryy	1r	.	1r
!	!	!	!	!	!	!	!	!	!	!	!LO:TX:a:t=problem:mixed beam	!	!	!	!	!	!	!	!
4r	.	.	.	.	8.cc#\)	a	8.ee\)	.	4r	.	8.cc#X\L	.	8.ee\L	.	.	.	.	.	.
.	.	.	.	.	16e\	a-	16g\k	a-	.	.	16e/Jk	.	16g\Jk	.	.	.	.	.	.
4D/	.	.	.	.	4e\	-ma-	4g\	-ma-	4d\	.	(4e/	.	4g\	.	.	.	.	.	.
!	!	!	!	!	!	!	!	!	!	!	!LO:TX:a:t=problem:mixed beam	!	!LO:TX:a:t=problem:mixed beam	!	!	!	!	!	!
4r	.	.	.	.	8.d\	-ra	8.f#\	-ra	4r	.	8.d/L)	.	8.f#/L	.	.	.	.	.	.
.	.	.	.	.	16dd\	non-	16ff#\k	non-	.	.	16dd\Jk	.	16ff#/Jk	.	.	.	.	.	.
=65	=65	=65	=65	=65	=65	=65	=65	=65	=65	=65	=65	=65	=65	=65	=65	=65	=65	=65	=65
!	!	!	!	!	!	!	!LO:LB:g=original	!	!	!	!	!	!	!	!	!	!	!	!
4AA/	.	.	1ryy	1ryy	(4dd\	-sis	(4ff#\	-sis	4F#/	.	4dd\	.	4ff#\	.	1ryy	1ryy	1r	.	1r
!	!	!	!	!	!	!	!	!	!	!	!LO:TX:a:t=problem:mixed beam	!	!	!	!	!	!	!	!
4r	.	.	.	.	8.cc#)	.	8.ee\)	.	4r	.	8.cc#X\L	.	8.ee\L	.	.	.	.	.	.
.	.	.	.	.	16e\	a-	16g\k	a-	.	.	16e/Jk	.	16g\Jk	.	.	.	.	.	.
4D/	.	.	.	.	4e\	-ma-	4g/	-ma-	4F#/	.	(4e/	.	4g\	.	.	.	.	.	.
4r	.	.	.	.	4d\	-ra	4f#/	-ra	4r	.	8.d/L)	.	8.f#\L	.	.	.	.	.	.
.	.	.	.	.	.	.	.	.	.	.	16f#/Jk	.	16a\Jk	.	.	.	.	.	.
=66	=66	=66	=66	=66	=66	=66	=66	=66	=66	=66	=66	=66	=66	=66	=66	=66	=66	=66	=66
4G\	.	.	1ryy	1ryy	2.g\	fac-	2.b\	fac-	4d\	.	2.g/	.	2.b\	.	1ryy	1ryy	1r	.	1r
4G\	.	.	.	.	.	.	.	.	4d\	.	.	.	.	.	.	.	.	.	.
4G\	.	.	.	.	.	.	.	.	4e\	.	.	.	.	.	.	.	.	.	.
4G\	.	.	.	.	8b\L	-me	8gg\L	-me	4e\	.	8b/L	.	8gg\L	.	.	.	.	.	.
.	.	.	.	.	8g\J	.	8ee\J	.	.	.	8g/J	.	8ee\J	.	.	.	.	.	.
=67	=67	=67	=67	=67	=67	=67	=67	=67	=67	=67	=67	=67	=67	=67	=67	=67	=67	=67	=67
!	!	!	!	!	!	!	!	!	!	!	!LO:LB:g=original	!	!	!	!	!	!	!	!
.	.	.	.	.	8qqf#/	.	4qqdd/	.	.	.	16qqf#/	.	16qqcc/	.	.	.	.	.	.
4G\	4# 2	.	1ryy	1ryy	2e\	te-	2cc#X\	te-	4A/	.	2e/	.	2cc#X\	.	1ryy	1ryy	1r	.	1r
4G\	.	.	.	.	.	.	.	.	4A/	.	.	.	.	.	.	.	.	.	.
4F#\	.	.	.	.	2f#\	-cum	2dd\	-cum	4A/	.	2f#/	.	2dd\	.	.	.	.	.	.
4F#\	.	.	.	.	.	.	.	.	4A/	.	.	.	.	.	.	.	.	.	.
=68	=68	=68	=68	=68	=68	=68	=68	=68	=68	=68	=68	=68	=68	=68	=68	=68	=68	=68	=68
!LO:LB:g=original	!	!	!	!	!	!	!	!	!	!	!	!	!	!	!	!	!	!	!
4G\	6	.	1ryy	1ryy	8g\L	{te-	8b\L	te-	4G/	.	(8g/L	.	8b\L	.	1ryy	1ryy	1r	.	1r
.	.	.	.	.	8b\J	.	8gg\J	.	.	.	8b/	.	8gg\	.	.	.	.	.	.
4G\	.	.	.	.	8a\L	-cum}	8ff#\L	-cum	4G/	.	8a/	.	(8ff#\	.	.	.	.	.	.
.	.	.	.	.	8g\J	.	8ee\J	.	.	.	8g/J)	.	8ee\J)	.	.	.	.	.	.
!	!	!	!	!	!	!	!	!	!	!	!	!	!LO:LB:g=original	!	!	!	!	!	!
4A\	4#	.	.	.	8g\L	plan-	8ee\L	plan-	4A/	.	(8g/L	.	(8ee\L	.	.	.	.	.	.
.	.	.	.	.	8f#\J	.	8dd\J	.	.	.	8f#/)	.	8dd\)	.	.	.	.	.	.
4A\	3	.	.	.	8f#\L	-ge-	8dd\L	-ge-	4A/	.	(8f#/	.	(8dd\	.	.	.	.	.	.
.	.	.	.	.	8e\J	.	8cc#X\J	.	.	.	8e/J)	.	8cc#X\J)	.	.	.	.	.	.
=69	=69	=69	=69	=69	=69	=69	=69	=69	=69	=69	=69	=69	=69	=69	=69	=69	=69	=69	=69
.	.	.	.	.	8qqe/	.	4qqcc/	.	.	.	16qqe/	.	16qqcc/	.	.	.	.	.	.
4D\	.	.	1ryy	1ryy	2f#\	-re-	2dd\	-re	4d\	.	2f#/	.	2dd\	.	1ryy	1ryy	1r	.	1r
4D\	.	.	.	.	.	.	.	.	4d\	.	.	.	.	.	.	.	.	.	.
4F#\	.	.	.	.	2r	.	2r	.	4f#\	.	4r	.	4r	.	.	.	.	.	.
4D\	.	.	.	.	.	.	.	.	4d\	.	8r	.	8r	.	.	.	.	.	.
.	.	.	.	.	.	.	.	.	.	.	8dd\	.	8ff#\	.	.	.	.	.	.
=70	=70	=70	=70	=70	=70	=70	=70	=70	=70	=70	=70	=70	=70	=70	=70	=70	=70	=70	=70
!	!	!	!	!	!LO:LB:g=original	!	!	!	!	!	!	!	!	!	!	!	!	!	!
4A\	.	.	1ryy	1ryy	2r	.	2r	.	4A/	.	4dd\	.	4ff#\	.	1ryy	1ryy	1r	.	1r
!	!	!	!	!	!	!	!	!	!	!	!LO:TX:a:t=problem:mixed beam	!	!LO:TX:a:t=problem:mixed beam	!	!	!	!	!	!
4r	.	.	.	.	.	.	.	.	4r	.	8.cc#X\L	.	8.ee\L	.	.	.	.	.	.
.	.	.	.	.	.	.	.	.	.	.	16e/Jk	.	16g/Jk	.	.	.	.	.	.
4D\	.	.	.	.	4r	.	4r	.	4A/	.	(4e/	.	4g/	.	.	.	.	.	.
!	!	!	!	!	!	!	!	!	!	!	!LO:TX:a:t=problem:mixed beam	!	!LO:TX:a:t=problem:mixed beam	!	!	!	!	!	!
4r	.	.	.	.	8r	.	8r	.	4r	.	8.d/L)	.	8.f#/L	.	.	.	.	.	.
.	.	.	.	.	8dd\	non-	8ff#\	non-	.	.	.	.	.	.	.	.	.	.	.
.	.	.	.	.	.	.	.	.	.	.	16dd\Jk	.	16ff#\Jk	.	.	.	.	.	.
=71	=71	=71	=71	=71	=71	=71	=71	=71	=71	=71	=71	=71	=71	=71	=71	=71	=71	=71	=71
4A\	.	.	1ryy	1ryy	(4dd\	-sis	(4ff#\	-sis	4A/	.	4dd\	.	4ff#\	.	1ryy	1ryy	1r	.	1r
!	!	!	!	!	!	!	!	!	!	!	!LO:TX:a:t=problem:mixed beam	!	!LO:TX:a:t=problem:mixed beam	!	!	!	!	!	!
4r	.	.	.	.	8.cc#X\)	.	8.ee\)	.	4r	.	8.cc\L	.	8.ee\L	.	.	.	.	.	.
.	.	.	.	.	16e\k	a-	16g\k	a-	.	.	16e/Jk	.	16g/Jk	.	.	.	.	.	.
4D\	.	.	.	.	4e\	-ma-	4g/	-ma-	4A/	.	(4e/	.	4g/	.	.	.	.	.	.
4r	.	.	.	.	4d\	-ra	4f#/	-ra	4r	.	8d/)	.	8f#/	.	.	.	.	.	.
.	.	.	.	.	.	.	.	.	.	.	8r	.	8r	.	.	.	.	.	.
=72	=72	=72	=72	=72	=72	=72	=72	=72	=72	=72	=72	=72	=72	=72	=72	=72	=72	=72	=72
*	*	*	*	*	*	*	*	*	*tremolo	*	*tremolo	*	*tremolo	*	*	*	*	*	*
4F#\	6	.	1ryy	1ryy	2d\	fac-	2aa\	fac-	8f#\L	.	8d'/L	.	8aa'\L	.	1ryy	1ryy	1r	.	1r
.	.	.	.	.	.	.	.	.	8f#\	.	8d'/	.	8aa'\	.	.	.	.	.	.
4F#\	.	<	.	.	.	.	.	.	8f#\	.	8d'/	.	8aa'\	.	.	.	.	.	.
.	.	.	.	.	.	.	.	.	8f#\J	.	8d'/J	.	8aa'\J	.	.	.	.	.	.
!	!	!	!	!	!	!	!	!	!	!LO:HP:a	!	!	!	!	!	!	!	!	!
4F#\	.	.	.	.	2dd\	-me	2a\	-me	8f#\L	<	8dd'\LT	.	8a'\L	.	.	.	.	.	.
.	.	.	.	.	.	.	.	.	8f#\	.	8dd'\	.	8a'\	.	.	.	.	.	.
4F#\	.	.	.	.	.	.	.	.	8f#\	.	8dd'\	.	8a'\	.	.	.	.	.	.
.	.	.	.	.	.	.	.	.	8f#\J	.	8dd'\J	.	8a'\J	.	.	.	.	.	.
=73	=73	=73	=73	=73	=73	=73	=73	=73	=73	=73	=73	=73	=73	=73	=73	=73	=73	=73	=73
!	!	!	!	!	!	!	!LO:LB:g=original	!	!	!	!LO:TX:a:t=cresc.	!	!	!LO:HP:a	!	!	!	!	!
4G\	.	.	1ryy	1ryy	2dd\	te-	2b\	te-	8a\L	.	8dd\L	.	8b\L	<	1ryy	1ryy	1r	.	1r
.	.	.	.	.	.	.	.	.	8a\	.	8dd\	.	8b\	.	.	.	.	.	.
4G\	.	.	.	.	.	.	.	.	8a\	.	8dd\	.	8b\	.	.	.	.	.	.
.	.	.	.	.	.	.	.	.	8a\J	.	8dd\J	.	8b\J	.	.	.	.	.	.
4G\	.	.	.	.	2b\	-cum	2gg\	-cum	8g\L	.	8b\L	.	8gg\L	.	.	.	.	.	.
.	.	.	.	.	.	.	.	.	8g\	.	8b\	.	8gg\	.	.	.	.	.	.
4G\	.	.	.	.	.	.	.	.	8g\	.	8b\	.	8gg\	.	.	.	.	.	.
.	.	.	.	.	.	.	.	.	8g\J	.	8b\J	.	8gg\J	.	.	.	.	.	.
=74	=74	=74	=74	=74	=74	=74	=74	=74	=74	=74	=74	=74	=74	=74	=74	=74	=74	=74	=74
*	*	*	*	*	*	*	*Xtuplet	*	*	*	*Xtremolo	*	*	*	*	*	*	*	*
4A\	6 4	.	1ryy	1ryy	2a\	plan-	12ff#\L	plan-	16a\LL	.	8a\L	.	8ff#\L	.	1ryy	1ryy	1r	.	1r
.	.	.	.	.	.	.	.	.	16a\	.	.	.	.	.	.	.	.	.	.
.	.	.	.	.	.	.	12ee\	.	.	.	.	.	.	.	.	.	.	.	.
.	.	.	.	.	.	.	.	.	16a\	.	8dd\	.	8ff#\	.	.	.	.	.	.
.	.	.	.	.	.	.	12dd\J	.	.	.	.	.	.	.	.	.	.	.	.
.	.	.	.	.	.	.	.	.	16a\	.	.	.	.	.	.	.	.	.	.
4A\	.	.	.	.	.	.	12cc#X\L	.	16a\	.	8dd\	.	8ff#\	.	.	.	.	.	.
.	.	.	.	.	.	.	.	.	16a\	.	.	.	.	.	.	.	.	.	.
.	.	.	.	.	.	.	12b\	.	.	.	.	.	.	.	.	.	.	.	.
.	.	.	.	.	.	.	.	.	16a\	.	8dd\J	.	8ff#\J	.	.	.	.	.	.
.	.	.	.	.	.	.	12a\J	.	.	.	.	.	.	.	.	.	.	.	.
.	.	.	.	.	.	.	.	.	16a\JJ	.	.	.	.	.	.	.	.	.	.
!LO:LB:g=original	!	!	!	!	!	!	!	!	!	!	!LO:LB:g=original	!	!	!	!	!	!	!	!
4AA/	5 3#	.	.	.	4.cc#X\	.	4.eeTT\	.	16A/LL	.	8cc#X\L	.	8ee\L	.	.	.	.	.	.
.	.	.	.	.	.	.	.	.	16A/	.	.	.	.	.	.	.	.	.	.
.	.	.	.	.	.	.	.	.	16A/	.	8cc#\	.	8ee\	.	.	.	.	.	.
.	.	.	.	.	.	.	.	.	16A/	.	.	.	.	.	.	.	.	.	.
4AA/	.	.	.	.	.	.	.	.	16A/	.	8cc#\	.	8ee\	.	.	.	.	.	.
.	.	.	.	.	.	.	.	.	16A/	.	.	.	.	.	.	.	.	.	.
.	.	.	.	.	8cc#\	-ge-	8ee\	-ge-	16A/	.	8cc#\J	.	8ee\J	.	.	.	.	.	.
.	.	.	.	.	.	.	.	.	16A/JJ	.	.	.	.	.	.	.	.	.	.
*	*	*	*	*	*	*	*	*	*	*	*	*	*Xtremolo	*	*	*	*	*	*
=75	=75	=75	=75	=75	=75	=75	=75	=75	=75	=75	=75	=75	=75	=75	=75	=75	=75	=75	=75
!	!	!	!	!	!	!	!	!	!	!	!	!LO:DY:t=pi	!	!	!	!	!	!	!LO:TX:b:i:t=Dolce
4D\	.	p	1ryy	1ryy	2dd\	-re	2dd\	-re	4d\	p	4dd\	p	(4dd\	.	1ryy	1ryy	2ff#\	.	2aa\
4D\	.	.	.	.	.	.	.	.	4d\	.	4f#/	.	4a\	p	.	.	.	.	.
4D\	.	.	.	.	2r	.	2r	.	4d\	.	8f#/L	.	8a\L)	.	.	.	8ff#\L	.	8aa\L
.	.	.	.	.	.	.	.	.	.	.	8g/	.	8b\	.	.	.	8gg\	.	8bb\
4D\	.	.	.	.	.	.	.	.	4d\	.	8e/	.	8cc#X\	.	.	.	8ee\	.	8ccc#X\
.	.	.	.	.	.	.	.	.	.	.	8f#/J	.	8dd\J	.	.	.	8ff#\J	.	8ddd\J
=76	=76	=76	=76	=76	=76	=76	=76	=76	=76	=76	=76	=76	=76	=76	=76	=76	=76	=76	=76
.	.	.	.	.	.	.	.	.	.	.	8qqa/	.	8qqcc/	.	.	.	.	.	16qqccc/
4D\	6 4:	.	1ryy	1ryy	00r	.	00r	.	4d\	.	2g/	.	2b\	.	1ryy	1ryy	2ff#\	.	2bb\
4D\	.	.	.	.	.	.	.	.	4d\	.	.	.	.	.	.	.	.	.	.
4D\	5 3	.	.	.	.	.	.	.	4d\	.	4f#/	.	4a\	.	.	.	4ff#\	.	4aa\
4D\	.	.	.	.	.	.	.	.	4d\	.	4r	.	4r	.	.	.	4r	.	4r
=77	=77	=77	=77	=77	=77	=77	=77	=77	=77	=77	=77	=77	=77	=77	=77	=77	=77	=77	=77
!	!	!	!	!	!	!	!	!	!	!	!	!	!LO:LB:g=original	!	!	!	!	!	!
.	.	.	.	.	.	.	.	.	.	.	8qqf#/	.	8qqa/	.	.	.	.	.	.
2G\	.	.	1ryy	1ryy	.	.	.	.	2G/	.	4e/	.	4g/	.	1ryy	1ryy	4ee\	.	4gg\
.	.	.	.	.	.	.	.	.	.	.	2d/	.	2f#/	.	.	.	2dd\	.	2ff#\
2A\	6 4	.	.	.	.	.	.	.	2A/	.	.	.	.	.	.	.	.	.	.
.	5 3	.	.	.	.	.	.	.	.	.	4c#X/	.	4e/	.	.	.	4cc#X\	.	4ee\
=78	=78	=78	=78	=78	=78	=78	=78	=78	=78	=78	=78	=78	=78	=78	=78	=78	=78	=78	=78
!	!	!	!	!	!	!	!	!	!	!	!	!	!	!	!	!	!LO:LB:g=original	!	!
4D\	.	.	1ryy	1ryy	.	.	.	.	4d\	.	8e/L	.	8g/L	.	1ryy	1ryy	8ee\L	.	8gg\L
.	.	.	.	.	.	.	.	.	.	.	8d/	.	8f#/	.	.	.	8dd\	.	8ff#\
4D\	.	.	.	.	.	.	.	.	4d\	.	8g/	.	8b/	.	.	.	8gg\	.	8bb\
.	.	.	.	.	.	.	.	.	.	.	8f#/J	.	8a/J	.	.	.	8ff#\J	.	8aa\J
4D\	.	.	.	.	.	.	.	.	4d\	.	4f#/	.	4a/	.	.	.	4ff#\	.	4aa\
4D\	.	.	.	.	.	.	.	.	4d\	.	4r	.	4r	.	.	.	4r	.	4r
=79	=79	=79	=79	=79	=79	=79	=79	=79	=79	=79	=79	=79	=79	=79	=79	=79	=79	=79	=79
!	!	!	!	!	!	!	!	!	!	!	!	!	!	!	!	!	!LO:TX:a:t=3	!	!LO:TX:a:t=3
4D\	.	f	1ryy	1ryy	.	.	.	.	4d\	f	2gg\	f	2aa\	f	1ryy	1ryy	0r	.	0r
4D\	.	.	.	.	.	.	.	.	4d\	.	.	.	.	.	.	.	.	.	.
4D\	.	.	.	.	.	.	.	.	4d\	.	8gg\L	.	8aa\L	.	.	.	.	.	.
.	.	.	.	.	.	.	.	.	.	.	8aa\	.	8bb\	.	.	.	.	.	.
4D\	.	.	.	.	.	.	.	.	4d\	.	8ff#\	.	8ccc#X\	.	.	.	.	.	.
.	.	.	.	.	.	.	.	.	.	.	8gg\J	.	8ddd\J	.	.	.	.	.	.
=80	=80	=80	=80	=80	=80	=80	=80	=80	=80	=80	=80	=80	=80	=80	=80	=80	=80	=80	=80
.	.	.	.	.	.	.	.	.	.	.	8qqaa/	.	8qqbb/	.	.	.	.	.	.
4D\	6_ 4_	.	1ryy	1ryy	00r	.	00r	.	4d\	.	2gg\	.	2bb\	.	1ryy	1ryy	.	.	.
4D\	.	.	.	.	.	.	.	.	4d\	.	.	.	.	.	.	.	.	.	.
4D\	5 3	.	.	.	.	.	.	.	4d\	.	4ff#\	.	4aa\	.	.	.	.	.	.
4D\	.	.	.	.	.	.	.	.	4d\	.	4r	.	4r	.	.	.	.	.	.
=81	=81	=81	=81	=81	=81	=81	=81	=81	=81	=81	=81	=81	=81	=81	=81	=81	=81	=81	=81
!LO:LB:g=original	!	!	!	!	!	!	!	!	!LO:LB:g=original	!	!	!	!	!	!	!	!	!	!
.	.	.	.	.	.	.	.	.	.	.	8qqgg/	.	8qqaa/	.	.	.	.	.	.
2G\	.	.	1ryy	1ryy	.	.	.	.	2g\	.	4ff#\	.	4gg\	.	1ryy	1ryy	1r	.	1r
.	.	.	.	.	.	.	.	.	.	.	2ee\	.	2ff#\	.	.	.	.	.	.
2A\	6 4	.	.	.	.	.	.	.	2a\	.	.	.	.	.	.	.	.	.	.
.	5 3	.	.	.	.	.	.	.	.	.	4cc#X\	.	4ee\	.	.	.	.	.	.
=82	=82	=82	=82	=82	=82	=82	=82	=82	=82	=82	=82	=82	=82	=82	=82	=82	=82	=82	=82
!	!	!	!	!	!	!	!	!	!	!	!LO:LB:g=original	!	!	!	!	!	!	!	!
.	.	.	.	.	.	.	.	.	.	.	.	.	8qqee/	.	.	.	.	.	.
4d\	.	.	1ryy	1ryy	.	.	.	.	4d\	.	4dd\	.	4ff#\	.	1ryy	1ryy	2f#/	.	2dd\
4D/	.	.	.	.	.	.	.	.	4D/	.	8r	.	8r	.	.	.	.	.	.
.	.	.	.	.	.	.	.	.	.	.	8dd\	.	8dd\	.	.	.	.	.	.
2r	.	.	.	.	.	.	.	.	2r	.	(8cc#X\L	.	(8ee\L	.	.	.	2r	.	2r
.	.	.	.	.	.	.	.	.	.	.	8dd\)	.	8dd\)	.	.	.	.	.	.
.	.	.	.	.	.	.	.	.	.	.	(8ee\	.	(8gg\	.	.	.	.	.	.
.	.	.	.	.	.	.	.	.	.	.	8dd\J)	.	8ff#\J)	.	.	.	.	.	.
=83	=83	=83	=83	=83	=83	=83	=83	=83	=83	=83	=83	=83	=83	=83	=83	=83	=83	=83	=83
.	.	.	.	.	.	.	.	.	.	.	.	.	8qqff#/	.	.	.	.	.	.
4A\	#	.	1ryy	1ryy	.	.	.	.	4a\	.	4cc\	.	4ee\	.	1ryy	1ryy	2cc#X\	.	2ee\
4AA/	.	.	.	.	.	.	.	.	4A/	.	8r	.	8r	.	.	.	.	.	.
.	.	.	.	.	.	.	.	.	.	.	8cc\	.	8ee\	.	.	.	.	.	.
2r	.	.	.	.	.	.	.	.	2r	.	(8dd\L	.	8ff#\L	.	.	.	2r	.	2r
.	.	.	.	.	.	.	.	.	.	.	8cc\)	.	8ee\	.	.	.	.	.	.
.	.	.	.	.	.	.	.	.	.	.	(8ff#\	.	8aa\	.	.	.	.	.	.
.	.	.	.	.	.	.	.	.	.	.	8ee\J)	.	8gg\J	.	.	.	.	.	.
=84	=84	=84	=84	=84	=84	=84	=84	=84	=84	=84	=84	=84	=84	=84	=84	=84	=84	=84	=84
!	!	!	!	!	!	!	!	!	!	!	!	!	!	!	!	!	!	!	!LO:PB:g=original
.	.	.	.	.	.	.	.	.	.	.	.	.	.	.	.	.	.	.	.
4D/	.	.	1ryy	1ryy	00r	.	00r	.	4d\	.	4dd\	.	4ff#\	.	1ryy	1ryy	2dd\	.	2ff#\
4DD/	.	.	.	.	.	.	.	.	4D/	.	8r	.	8r	.	.	.	.	.	.
.	.	.	.	.	.	.	.	.	.	.	8ff#\	.	8aa\	.	.	.	.	.	.
2r	.	.	.	.	.	.	.	.	2r	.	8gg\L	.	8bb\L	.	.	.	2r	.	2r
.	.	.	.	.	.	.	.	.	.	.	8aa\	.	8ccc#X\J	.	.	.	.	.	.
!	!	!	!	!	!	!	!	!	!	!	!	!	!LO:LB:g=original	!	!	!	!	!	!
.	.	.	.	.	.	.	.	.	.	.	8bb\	.	8ddd\L	.	.	.	.	.	.
.	.	.	.	.	.	.	.	.	.	.	8aa\J	.	8ccc#\J	.	.	.	.	.	.
=85	=85	=85	=85	=85	=85	=85	=85	=85	=85	=85	=85	=85	=85	=85	=85	=85	=85	=85	=85
.	.	.	.	.	.	.	.	.	.	.	.	.	.	.	.	.	.	.	.
!LO:TX:a:t=1	!	!	!	!	!	!	!	!	!LO:TX:a:t=problem:nad taktem ćwierćnuta	!	!	!	!	!	!	!	!	!	!
1r	.	.	1ryy	1ryy	.	.	.	.	1r	.	8aa\L	.	(8ccc\L	.	1ryy	1ryy	1r	.	1r
.	.	.	.	.	.	.	.	.	.	.	8gg\	.	8bb\)	.	.	.	.	.	.
.	.	.	.	.	.	.	.	.	.	.	8gg\	.	(8bb\	.	.	.	.	.	.
.	.	.	.	.	.	.	.	.	.	.	8ff#\J	.	8aa\J)	.	.	.	.	.	.
.	.	.	.	.	.	.	.	.	.	.	8ff#\L	.	(8aa\L	.	.	.	.	.	.
.	.	.	.	.	.	.	.	.	.	.	8ee\	.	8gg\)	.	.	.	.	.	.
.	.	.	.	.	.	.	.	.	.	.	8ee\	.	(8gg\	.	.	.	.	.	.
.	.	.	.	.	.	.	.	.	.	.	8dd#X\J	.	8ff#\J)	.	.	.	.	.	.
=86	=86	=86	=86	=86	=86	=86	=86	=86	=86	=86	=86	=86	=86	=86	=86	=86	=86	=86	=86
.	.	.	.	.	.	.	.	.	.	.	.	.	16qqff#/	.	.	.	.	.	.
!	!	!	!	!	!	!	!	!	!	!	!	!	!	!	!	!	!LO:TX:a:t=problem:repetycja taktu 86	!	!
4G\	6	.	1ryy	1ryy	.	.	.	.	4b\	.	4.ee\	.	4.ee\	.	1ryy	1ryy	2b\	.	[2ee\
4G\	.	.	.	.	.	.	.	.	4b\	.	.	.	.	.	.	.	.	.	.
.	.	.	.	.	.	.	.	.	.	.	8dd#X\	.	8dd#X\	.	.	.	.	.	.
4G\	.	.	.	.	.	.	.	.	4b\	.	8ee\L	.	8ee\L	.	.	.	4b\	.	4ee\]
.	.	.	.	.	.	.	.	.	.	.	8ff#\	.	8ff#\	.	.	.	.	.	.
4r	.	.	.	.	.	.	.	.	4r	.	8gg\	.	8gg\	.	.	.	4r	.	4r
.	.	.	.	.	.	.	.	.	.	.	8ff#\J	.	8ff#\J	.	.	.	.	.	.
=87	=87	=87	=87	=87	=87	=87	=87	=87	=87	=87	=87	=87	=87	=87	=87	=87	=87	=87	=87
.	.	.	.	.	.	.	.	.	.	.	8qqff#/	.	8qqff#/	.	.	.	.	.	.
4G\	6	.	1ryy	1ryy	.	.	.	.	4b\	.	4.ee\	.	4.ee\	.	1ryy	1ryy	2b\	.	2ee\
4G\	.	.	.	.	.	.	.	.	4b\	.	.	.	.	.	.	.	.	.	.
.	.	.	.	.	.	.	.	.	.	.	8dd#X\	.	8dd#X\	.	.	.	.	.	.
4G\	.	.	.	.	.	.	.	.	4b\	.	8ee\L	.	8ee\L	.	.	.	4b\	.	4ee\
.	.	.	.	.	.	.	.	.	.	.	8ff#\	.	8ff#\	.	.	.	.	.	.
4r	.	.	.	.	.	.	.	.	4r	.	8gg\	.	8gg\	.	.	.	4r	.	4r
.	.	.	.	.	.	.	.	.	.	.	8aa\J	.	8aa\J	.	.	.	.	.	.
=88	=88	=88	=88	=88	=88	=88	=88	=88	=88	=88	=88	=88	=88	=88	=88	=88	=88	=88	=88
!	!	!	!	!	!	!	!	!	!	!	!LO:LB:g=original	!	!	!	!	!	!	!	!
4G\	6	.	1ryy	1ryy	1r	.	00r	.	4e\	.	(8aa#X\L	.	(8aa#X\L	.	1ryy	1ryy	4r	.	4r
.	.	.	.	.	.	.	.	.	.	.	8bb\)	.	8bb\)	.	.	.	.	.	.
4G\	.	.	.	.	.	.	.	.	4e\	.	(8aa#\	.	(8aa#\	.	.	.	4ee\	.	8bb-\L
.	.	.	.	.	.	.	.	.	.	.	8bb\J)	.	8bb\J)	.	.	.	.	.	8bbX\J
4G\	.	.	.	.	.	.	.	.	4b\	.	8aan\L	.	(8aan\L	.	.	.	4ee\	.	8bb-\L
.	.	.	.	.	.	.	.	.	.	.	8gg\	.	8gg\)	.	.	.	.	.	8gg\
4G\	.	.	.	.	.	.	.	.	4g\	.	8ff#\	.	(8ff#\	.	.	.	4ee\	.	8ff#\
.	.	.	.	.	.	.	.	.	.	.	8ee\J	.	8ee\J)	.	.	.	.	.	8ee\J
=89	=89	=89	=89	=89	=89	=89	=89	=89	=89	=89	=89	=89	=89	=89	=89	=89	=89	=89	=89
!	!	!	!	!	!LO:TX:t=P:problem=brak czterech taktów pauz	!	!	!	!	!	!	!	!	!	!	!	!	!	!
4F#\	6|	.	1ryy	1ryy	1ryy	.	.	.	4f#\	.	8aa\L	.	8aa'\L	.	1ryy	1ryy	4dd\	.	8aa\L
.	.	.	.	.	.	.	.	.	.	.	8aa#X\	.	(8aa#X\	.	.	.	.	.	8bb-\
4G\	.	.	.	.	.	.	.	.	4d\	.	8bb\	.	8bb\	.	.	.	2dd\	.	8bbX\
.	.	.	.	.	.	.	.	.	.	.	8gg\J	.	8gg\J)	.	.	.	.	.	8gg\J
.	.	.	.	.	.	.	.	.	.	.	4qqff#/	.	4qqff#/	.	.	.	.	.	8qqff#/
4A\	6 4	.	.	.	.	.	.	.	4d\	.	2ee\	.	2ee\	.	.	.	.	.	2ee\
4G\	6 4#	.	.	.	.	.	.	.	4c#X\	.	.	.	.	.	.	.	4cc#X\	.	.
=90	=90	=90	=90	=90	=90	=90	=90	=90	=90	=90	=90	=90	=90	=90	=90	=90	=90	=90	=90
*	*	*	*	*	*	*	*	*	*	*	*	*	*tuplet	*	*	*	*	*	*
!	!	!	!	!	!	!	!	!	!	!	!	!	!	!	!	!	!LO:LB:g=original	!	!
2F#\	6	.	1ryy	1ryy	1ryy	.	.	.	2d\	.	12dd\L	.	(12dd\L	.	1ryy	1ryy	2dd\	.	2dd\
.	.	.	.	.	.	.	.	.	.	.	12ddd\	.	12ddd\	.	.	.	.	.	.
.	.	.	.	.	.	.	.	.	.	.	12ccc#X\J	.	12ccc#X\J)	.	.	.	.	.	.
*	*	*	*	*	*	*	*	*	*	*	*	*	*Xtuplet	*	*	*	*	*	*
!	!	!	!	!	!	!	!	!	!	!	!	!	!LO:LB:g=original	!	!	!	!	!	!
.	.	.	.	.	.	.	.	.	.	.	12ddd\L	.	12ddd\L	.	.	.	.	.	.
.	.	.	.	.	.	.	.	.	.	.	12ccc#\	.	12ccc#\	.	.	.	.	.	.
.	.	.	.	.	.	.	.	.	.	.	12bb\J	.	12bb\J	.	.	.	.	.	.
4r	.	.	.	.	.	.	.	.	4r	.	12aa\L	.	12aa\L	.	.	.	8r	.	8r
.	.	.	.	.	.	.	.	.	.	.	12gg\	.	12gg\	.	.	.	.	.	.
.	.	.	.	.	.	.	.	.	.	.	.	.	.	.	.	.	8gg\L	.	8bb\L
.	.	.	.	.	.	.	.	.	.	.	12ff#\J	.	12ff#\J	.	.	.	.	.	.
4G\	.	.	.	.	.	.	.	.	4G/	.	12bb\L	.	12bb\L	.	.	.	8ff#\	.	8aa\
.	.	.	.	.	.	.	.	.	.	.	12aa\	.	12aa\	.	.	.	.	.	.
.	.	.	.	.	.	.	.	.	.	.	.	.	.	.	.	.	8ee\J	.	8gg\J
.	.	.	.	.	.	.	.	.	.	.	12gg\J	.	12gg\J	.	.	.	.	.	.
=91	=91	=91	=91	=91	=91	=91	=91	=91	=91	=91	=91	=91	=91	=91	=91	=91	=91	=91	=91
4A\	6 4	.	1ryy	1ryy	1ryy	.	.	.	4A/	.	12ff#\L	.	12ff#\L	.	1ryy	1ryy	2.dd\	.	2ff#\
.	.	.	.	.	.	.	.	.	.	.	12ee\	.	12ee\	.	.	.	.	.	.
.	.	.	.	.	.	.	.	.	.	.	12dd\J	.	12dd\J	.	.	.	.	.	.
4A\	.	.	.	.	.	.	.	.	4A/	.	12cc#X\L	.	12cc#X\L	.	.	.	.	.	.
.	.	.	.	.	.	.	.	.	.	.	12b\	.	12b\	.	.	.	.	.	.
.	.	.	.	.	.	.	.	.	.	.	12a\J	.	12a\J	.	.	.	.	.	.
4AA/	.	.	.	.	.	.	.	.	4d/	.	2eeT\	.	2ddT\	.	.	.	.	.	2ee\
4AA/	5 3#	.	.	.	.	.	.	.	4c#X/	.	.	.	.	.	.	.	4cc#X\	.	.
=92	=92	=92	=92	=92	=92	=92	=92	=92	=92	=92	=92	=92	=92	=92	=92	=92	=92	=92	=92
!	!	!	!	!	!	!	!	!	!LO:LB:g=original	!	!	!	!	!	!	!	!	!	!LO:LB:g=original
2D\	.	.	1ryy	1ryy	1ryy	.	00r	.	2d\	.	4dd\	.	4dd\	.	1ryy	1ryy	2dd\	.	2dd\
.	.	.	.	.	.	.	.	.	.	.	4a\	.	4a\	.	.	.	.	.	.
2r	.	.	.	.	.	.	.	.	2r	.	4d/	.	4d/	.	.	.	2r	.	2r
.	.	.	.	.	.	.	.	.	.	.	4r	.	4r	.	.	.	.	.	.
=93	=93	=93	=93	=93	=93	=93	=93	=93	=93	=93	=93	=93	=93	=93	=93	=93	=93	=93	=93
!	!	!	!	!	!	!	!	!	!	!	!LO:LB:g=original	!	!	!	!	!	!	!	!
4D\	.	p	1ryy	1ryy	2a\	Fac-	.	.	4d\	p	[2ff#\	p	2aa\	.	1ryy	1ryy	1r	.	1r
4D\	.	.	.	.	.	.	.	.	4d\	.	.	.	.	.	.	.	.	.	.
4D\	.	.	.	.	8a\L	.	.	.	4d\	.	8ff#\L]	.	8aa\L	p	.	.	.	.	.
.	.	.	.	.	8b\J	.	.	.	.	.	8gg\	.	8bb\	.	.	.	.	.	.
4D\	.	.	.	.	8cc#X\L	ut	.	.	4d\	.	8ee\	.	8ccc#X\	.	.	.	.	.	.
.	.	.	.	.	8dd\J	.	.	.	.	.	8ff#\J	.	8ddd\J	.	.	.	.	.	.
=94	=94	=94	=94	=94	=94	=94	=94	=94	=94	=94	=94	=94	=94	=94	=94	=94	=94	=94	=94
!	!	!	!	!	!LO:LB:g=original	!	!	!	!	!	!	!	!	!	!	!	!	!	!
.	.	.	.	.	8qqcc#/	.	.	.	.	.	8qqaa/	.	8qqccc/	.	.	.	.	.	.
4D\	6 4	.	1ryy	1ryy	2b\	par-	.	.	4d\	.	2gg\	.	2bb\	.	1ryy	1ryy	1r	.	1r
4D\	.	.	.	.	.	.	.	.	4d\	.	.	.	.	.	.	.	.	.	.
4D\	5 3	.	.	.	4a\	-tem	.	.	4d\	.	4ff#\	.	4aa\	.	.	.	.	.	.
4D\	.	.	.	.	4r	.	.	.	4d\	.	4r	.	4r	.	.	.	.	.	.
=95	=95	=95	=95	=95	=95	=95	=95	=95	=95	=95	=95	=95	=95	=95	=95	=95	=95	=95	=95
.	.	.	.	.	8qqa/	.	.	.	.	.	8qqff#/	.	8qqaa/	.	.	.	.	.	.
2G\	.	.	1ryy	1ryy	(4g\	fac-	.	.	2G/	.	4ee\	.	4gg\	.	1ryy	1ryy	1r	.	1r
.	.	.	.	.	2f#\)	.	.	.	.	.	2ee\	.	2ff#\	.	.	.	.	.	.
2A\	6 4	.	.	.	.	.	.	.	2A/	.	.	.	.	.	.	.	.	.	.
.	5 3	.	.	.	4e\	ut	.	.	.	.	4cc#X\	.	4ee\	.	.	.	.	.	.
=96	=96	=96	=96	=96	=96	=96	=96	=96	=96	=96	=96	=96	=96	=96	=96	=96	=96	=96	=96
4D\	.	.	1ryy	1ryy	8g\L	-per-	0r	.	4d\	.	8ee\L	.	8gg\L	.	1ryy	1ryy	1r	.	1r
.	.	.	.	.	8f#\	.	.	.	.	.	8dd\	.	8ff#\	.	.	.	.	.	.
4D\	.	.	.	.	8b\	.	.	.	4d\	.	8gg\	.	8bb\	.	.	.	.	.	.
.	.	.	.	.	8a\J	.	.	.	.	.	8ff#\J	.	8aa\J	.	.	.	.	.	.
4D\	6 4	.	.	.	4a\	-tem	.	.	4d\	.	4ff#\	.	4aa\	.	.	.	.	.	.
4D\	5 3	.	.	.	4r	.	.	.	4d\	.	4r	.	4r	.	.	.	.	.	.
=97	=97	=97	=97	=97	=97	=97	=97	=97	=97	=97	=97	=97	=97	=97	=97	=97	=97	=97	=97
!	!	!	!	!	!	!	!	!	!	!	!	!	!LO:LB:g=original	!	!	!	!	!	!
.	.	.	.	.	8qqa/	.	.	.	.	.	8qqff#/	.	8qqaa/	.	.	.	.	.	.
2G\	.	.	1ryy	1ryy	4g\	Chri-	.	.	2g\	.	4ee\	.	4gg\	.	1ryy	1ryy	1r	.	1r
.	.	.	.	.	2f#\	.	.	.	.	.	2dd\	.	2ff#\	.	.	.	.	.	.
2A\	6 4	.	.	.	.	.	.	.	2a\	.	.	.	.	.	.	.	.	.	.
.	5 3	.	.	.	4e\	-sti	.	.	.	.	4cc#X\	.	4ee\	.	.	.	.	.	.
=98	=98	=98	=98	=98	=98	=98	=98	=98	=98	=98	=98	=98	=98	=98	=98	=98	=98	=98	=98
4D\	.	.	1ryy	1ryy	8f#\L	mor-	1r	.	4d\	.	12a/L	.	12ff#\L	.	1ryy	1ryy	1r	.	1r
.	.	.	.	.	.	.	.	.	.	.	12g/	.	12ee\	.	.	.	.	.	.
.	.	.	.	.	8e\	.	.	.	.	.	.	.	.	.	.	.	.	.	.
.	.	.	.	.	.	.	.	.	.	.	12f#/J	.	12dd\J	.	.	.	.	.	.
8r	.	.	.	.	8d\J	.	.	.	8r	.	4f#/	.	4dd\	.	.	.	.	.	.
8c\	.	.	.	.	4d\	-tem	.	.	8e\	.	.	.	.	.	.	.	.	.	.
4B\	.	.	.	.	.	.	.	.	4d\	.	2r	.	2r	.	.	.	.	.	.
.	.	.	.	.	8r	.	.	.	.	.	.	.	.	.	.	.	.	.	.
4A\	.	.	.	.	4r	.	.	.	4cn\	.	.	.	.	.	.	.	.	.	.
=99	=99	=99	=99	=99	=99	=99	=99	=99	=99	=99	=99	=99	=99	=99	=99	=99	=99	=99	=99
!LO:PB:g=original	!	!	!	!	!	!	!	!	!	!	!	!	!	!	!	!	!	!	!
4G\	.	.	1ryy	1ryy	00r	.	(2dd\	Fac	4B/	.	2b\	.	2dd\	.	1ryy	1ryy	1r	.	1r
4G\	.	.	.	.	.	.	.	.	4G/	.	.	.	.	.	.	.	.	.	.
4G\	.	.	.	.	.	.	8dd\L	.	4G/	.	8b\L	.	8dd\L	.	.	.	.	.	.
.	.	.	.	.	.	.	8ee\J)	.	.	.	8cc\	.	8ee\	.	.	.	.	.	.
4G\	.	.	.	.	.	.	8ff#\L	ut	4G/	.	8a\	.	8ff#\	.	.	.	.	.	.
.	.	.	.	.	.	.	8gg\J	.	.	.	8b\J	.	8gg\J	.	.	.	.	.	.
=100	=100	=100	=100	=100	=100	=100	=100	=100	=100	=100	=100	=100	=100	=100	=100	=100	=100	=100	=100
.	.	.	.	.	.	.	4qqff#/	.	.	.	4qqdd/	.	4qqff#/	.	.	.	.	.	.
4G\	.	.	1ryy	1ryy	.	.	2ee\	par-	4G/	.	2cc\	.	2ee\	.	1ryy	1ryy	1r	.	1r
4G\	.	.	.	.	.	.	.	.	4G/	.	.	.	.	.	.	.	.	.	.
4G\	.	.	.	.	.	.	4dd\	-tem	4G/	.	4b\	.	4dd\	.	.	.	.	.	.
4G\	.	.	.	.	.	.	4r	.	4G/	.	4r	.	4r	.	.	.	.	.	.
=101	=101	=101	=101	=101	=101	=101	=101	=101	=101	=101	=101	=101	=101	=101	=101	=101	=101	=101	=101
!	!	!	!	!	!	!	!	!	!LO:PB:g=original	!	!LO:LB:g=original	!	!	!	!	!	!	!	!
.	.	.	.	.	.	.	8qqdd/	.	.	.	8qqb/	.	8qqdd/	.	.	.	.	.	.
(>2C/	6 4	.	1ryy	1ryy	.	.	4cc\	fac	(2c\	.	4a/	.	4cc\	.	1ryy	1ryy	1r	.	1r
.	5 3	.	.	.	.	.	2b\	ut	.	.	2g/	.	2b\	.	.	.	.	.	.
2D/)	.	.	.	.	.	.	.	.	2d\)	.	.	.	.	.	.	.	.	.	.
.	.	.	.	.	.	.	4a\	.	.	.	4f#/	.	4a\	.	.	.	.	.	.
=102	=102	=102	=102	=102	=102	=102	=102	=102	=102	=102	=102	=102	=102	=102	=102	=102	=102	=102	=102
!	!	!	!	!	!	!	!LO:LB:g=original	!	!	!	!	!	!	!	!	!	!	!	!
4G\	.	.	1ryy	1ryy	.	.	(8cc\L	par-	4G/	.	8a/L	.	(8cc\L	.	1ryy	1ryy	1r	.	1r
.	.	.	.	.	.	.	8b\	.	.	.	8g/	.	8b\)	.	.	.	.	.	.
4G\	.	.	.	.	.	.	8ee\	.	4G/	.	8cc/	.	(8ee\	.	.	.	.	.	.
.	.	.	.	.	.	.	8dd\J)	.	.	.	8b/J	.	8dd\J)	.	.	.	.	.	.
4G\	.	.	.	.	.	.	4dd\	-tem	4G/	.	4b/	.	4dd\	.	.	.	.	.	.
4G\	.	.	.	.	.	.	4r	.	4G/	.	4r	.	4r	.	.	.	.	.	.
=103	=103	=103	=103	=103	=103	=103	=103	=103	=103	=103	=103	=103	=103	=103	=103	=103	=103	=103	=103
.	.	.	.	.	.	.	8qqdd/	.	.	.	8qqb/	.	8qqcc/	.	.	.	.	.	.
(>2C/	6 4	.	1ryy	1ryy	00r	.	4cc\	Chri-	(2c\	.	4a/	.	4cc\	.	1ryy	1ryy	1r	.	1r
.	5 3	.	.	.	.	.	2b\	.	.	.	2g/	.	2b\	.	.	.	.	.	.
2D/)	.	.	.	.	.	.	.	.	2d\)	.	.	.	.	.	.	.	.	.	.
.	.	.	.	.	.	.	4a\	-sti	.	.	4f#/	.	4a\	.	.	.	.	.	.
=104	=104	=104	=104	=104	=104	=104	=104	=104	=104	=104	=104	=104	=104	=104	=104	=104	=104	=104	=104
4G\	.	.	1ryy	1ryy	.	.	12b\L	mor-	4g\	.	4g/	.	12b\L	.	1ryy	1ryy	1r	.	1r
.	.	.	.	.	.	.	12a\	.	.	.	.	.	12a\	.	.	.	.	.	.
.	.	.	.	.	.	.	12g\J	.	.	.	.	.	12g\J	.	.	.	.	.	.
4GG/	.	.	.	.	.	.	4g\	-tem	4G/	.	4g/	.	4g\	.	.	.	.	.	.
4BB/	.	.	.	.	.	.	2r	.	4B/	.	2r	.	2r	.	.	.	.	.	.
4D/	.	.	.	.	.	.	.	.	4d/	.	.	.	.	.	.	.	.	.	.
=105	=105	=105	=105	=105	=105	=105	=105	=105	=105	=105	=105	=105	=105	=105	=105	=105	=105	=105	=105
4G\	.	.	1ryy	1ryy	.	.	2.dd\	Pasʃ-	4g\	.	2.b\	.	2.dd\	.	1ryy	1ryy	1r	.	1r
4GG/	.	.	.	.	.	.	.	.	4G/	.	.	.	.	.	.	.	.	.	.
4G\	.	.	.	.	.	.	.	.	4g\	.	.	.	.	.	.	.	.	.	.
4r	.	.	.	.	.	.	8b\L	-si-	4r	.	4g\	.	8b\L	.	.	.	.	.	.
.	.	.	.	.	.	.	8g\J	.	.	.	.	.	8g\J	.	.	.	.	.	.
=106	=106	=106	=106	=106	=106	=106	=106	=106	=106	=106	=106	=106	=106	=106	=106	=106	=106	=106	=106
!LO:LB:g=original	!	!	!	!	!	!	!	!	!	!	!	!	!LO:LB:g=original	!	!	!	!	!	!
4r	.	.	1ryy	1ryy	.	.	4fn/	-o-	4r	.	4d/	.	4fn/	.	1ryy	1ryy	1r	.	1r
4D/	3n	.	.	.	.	.	4f/	-nis	4d\	.	4d/	.	4f/	.	.	.	.	.	.
4D/	.	.	.	.	.	.	2r	.	4d\	.	4d/	.	4f/	.	.	.	.	.	.
4C/	.	.	.	.	.	.	.	.	4c\	.	4d/	.	4f/	.	.	.	.	.	.
=107	=107	=107	=107	=107	=107	=107	=107	=107	=107	=107	=107	=107	=107	=107	=107	=107	=107	=107	=107
2BB/	.	.	1ryy	1ryy	8dd\L	e-	8ffn\L	e-	2B/	.	8dd\L	.	8ffn\L	.	1ryy	1ryy	1r	.	1r
.	.	.	.	.	8cc\	.	8ee\	.	.	.	8cc\	.	8ee\	.	.	.	.	.	.
.	.	.	.	.	8b\	.	8dd\	.	.	.	8b\	.	8ee\	.	.	.	.	.	.
.	.	.	.	.	8a\J	.	8cc\J	.	.	.	8a\J	.	8cc\J	.	.	.	.	.	.
2GG/	7n	.	.	.	8g\L	.	8b/L	.	2G/	.	8g/L	.	8b\L	.	.	.	.	.	.
.	.	.	.	.	8fn\	.	8a/	.	.	.	8fn/	.	8a\	.	.	.	.	.	.
.	.	.	.	.	8e\	.	8g/	.	.	.	8e/	.	8g\	.	.	.	.	.	.
.	.	.	.	.	8d\J	-jus	8fn/J	-jus	.	.	8d/J	.	8f#\J	.	.	.	.	.	.
=108	=108	=108	=108	=108	=108	=108	=108	=108	=108	=108	=108	=108	=108	=108	=108	=108	=108	=108	=108
!	!	!	!	!	!LO:LB:g=original	!	!	!	!	!	!	!	!	!	!	!	!	!	!
4C/	.	.	1ryy	1ryy	4d\	sor-	4f#/	sor-	4c\	.	4d/	.	4f#/	.	1ryy	1ryy	1r	.	1r
4C/	.	.	.	.	4c\	-tem	4e/	-tem	4c\	.	4c/	.	4e/	.	.	.	.	.	.
4C/	.	.	.	.	2r	.	2r	.	4c\	.	2r	.	2r	.	.	.	.	.	.
4BB/	.	.	.	.	.	.	.	.	4B\	.	.	.	.	.	.	.	.	.	.
=109	=109	=109	=109	=109	=109	=109	=109	=109	=109	=109	=109	=109	=109	=109	=109	=109	=109	=109	=109
4AA/	3#	.	1ryy	1ryy	0r	.	2.ee\	Pas-	4A/	.	2.cc#X\	.	2.ee\	.	1ryy	1ryy	1r	.	1r
4A\	.	.	.	.	.	.	.	.	4a\	.	.	.	.	.	.	.	.	.	.
4AA/	.	.	.	.	.	.	.	.	4A/	.	.	.	.	.	.	.	.	.	.
4r	.	.	.	.	.	.	8cc#X\L	-si-	4r	.	4a\	.	8cc#X\L	.	.	.	.	.	.
.	.	.	.	.	.	.	8a\J	.	.	.	.	.	8a\J	.	.	.	.	.	.
=110	=110	=110	=110	=110	=110	=110	=110	=110	=110	=110	=110	=110	=110	=110	=110	=110	=110	=110	=110
!	!	!	!	!	!	!	!	!	!	!	!LO:PB:g=original	!	!	!	!	!	!	!	!
4r	.	.	1ryy	1ryy	.	.	4g\	-o-	4r	.	4e/	.	4g/	.	1ryy	1ryy	1r	.	1r
4E\	3	.	.	.	.	.	4g\	-nis	4e\	.	4e/	.	4g/	.	.	.	.	.	.
4E\	.	.	.	.	.	.	2r	.	4e\	.	4e/	.	4g/	.	.	.	.	.	.
4D\	.	.	.	.	.	.	.	.	4d\	.	4e/	.	4g/	.	.	.	.	.	.
=111	=111	=111	=111	=111	=111	=111	=111	=111	=111	=111	=111	=111	=111	=111	=111	=111	=111	=111	=111
2C#X/	.	.	1ryy	1ryy	8ee\L	e-	8gg\L	e-	2c#X/	.	8ee\L	.	8gg\L	.	1ryy	1ryy	1r	.	1r
.	.	.	.	.	8dd\	.	8ff#\	.	.	.	8dd\	.	8ff#\	.	.	.	.	.	.
.	.	.	.	.	8cc#X\	.	8ee\	.	.	.	8cc#X\	.	8ee\	.	.	.	.	.	.
.	.	.	.	.	8b\J	.	8dd\J	.	.	.	8b\J	.	8dd\J	.	.	.	.	.	.
2AA/	7 #	.	.	.	8a\L	.	8cc#X\L	.	2B/	.	8a/L	.	8cc#X\L	.	.	.	.	.	.
.	.	.	.	.	8g\	.	8b\J	.	.	.	8g/	.	8b\	.	.	.	.	.	.
.	.	.	.	.	8f#\	-jus	8a\L	-jus	.	.	8f#/	.	8a\	.	.	.	.	.	.
.	.	.	.	.	8e\J	.	8g\J	.	.	.	8e/J	.	8g\J	.	.	.	.	.	.
=112	=112	=112	=112	=112	=112	=112	=112	=112	=112	=112	=112	=112	=112	=112	=112	=112	=112	=112	=112
!	!	!	!	!	!	!	!	!	!LO:LB:g=original	!	!	!	!	!	!	!	!	!	!
4D\	.	.	1ryy	1ryy	4e\	sor-	4g\	sor-	4d\	.	4e/	.	4g/	.	1ryy	1ryy	1r	.	1r
4DD/	.	.	.	.	4d\	-tem	4f#\	-tem	4D/	.	4d/	.	4f#/	.	.	.	.	.	.
4D\	.	.	.	.	4r	.	4r	.	4d\	.	4d/	.	4f#/	.	.	.	.	.	.
4r	.	.	.	.	8r	.	8r	.	4r	.	4r	.	4r	.	.	.	.	.	.
.	.	.	.	.	8f#\	et	8dd\	et	.	.	.	.	.	.	.	.	.	.	.
=113	=113	=113	=113	=113	=113	=113	=113	=113	=113	=113	=113	=113	=113	=113	=113	=113	=113	=113	=113
.	.	.	.	.	.	.	8qqcc/L	.	.	.	.	.	.	.	.	.	.	.	.
.	.	.	.	.	8qqa/	.	8qqb/J	.	.	.	.	.	.	.	.	.	.	.	.
4r	.	.	1ryy	1ryy	2gT\	pla-	2b\	pla-	4r	.	4r	.	4r	.	1ryy	1ryy	1r	.	1r
(4C#X/	.	.	.	.	.	.	.	.	(4c#X\	.	(4gg\	.	(4bb-X\	.	.	.	.	.	.
4D/	7-	.	.	.	4f#\	-gas	4a\	-gas	4d\)	.	4ff#\)	.	4aa\)	.	.	.	.	.	.
4D/)	5 3	.	.	.	8r	.	8r	.	4d\	.	4ff#\	.	4aa\	.	.	.	.	.	.
.	.	.	.	.	8f#\	{et	8dd\	{et	.	.	.	.	.	.	.	.	.	.	.
=114	=114	=114	=114	=114	=114	=114	=114	=114	=114	=114	=114	=114	=114	=114	=114	=114	=114	=114	=114
!LO:LB:g=original	!	!	!	!	!	!	!	!	!	!	!	!	!LO:LB:g=original	!	!	!	!	!	!
.	.	.	.	.	4qqa/	.	4qqcc/	.	.	.	.	.	.	.	.	.	.	.	.
4r	.	.	1ryy	1ryy	2gT\	pla-	2b-X\	pla-	4r	.	4r	.	4r	.	1ryy	1ryy	1r	.	1r
(4C#X/	7-	.	.	.	.	.	.	.	4c#y\	.	4gg\	.	4bb-y\	.	.	.	.	.	.
4D/	5 3	.	.	.	4f#\	-gas	4a\	-gas	[4d\	.	4ff#\	.	4aa\	.	.	.	.	.	.
4D/)	.	.	.	.	8r	.	8r	.	4d\]	.	4a/	.	4dd\	.	.	.	.	.	.
.	.	.	.	.	8f#\	et	8dd\	et	.	.	.	.	.	.	.	.	.	.	.
=115	=115	=115	=115	=115	=115	=115	=115	=115	=115	=115	=115	=115	=115	=115	=115	=115	=115	=115	=115
1E	6|	.	1ryy	1ryy	2g\	pla-	2gg\	pla-}	4e\	.	1g	.	2gg\	.	1ryy	1ryy	1r	.	1r
.	.	.	.	.	.	.	.	.	4e\	.	.	.	.	.	.	.	.	.	.
!	!	!	!	!	!	!	!LO:LB:g=original	!	!	!	!	!	!	!	!	!	!	!	!
.	.	.	.	.	4g\	-gas}	8ff#\L	-gas	4e\	.	.	.	8ff#\L	.	.	.	.	.	.
.	.	.	.	.	.	.	8ee\J	.	.	.	.	.	8ee\	.	.	.	.	.	.
.	.	.	.	.	4g\	-re	8dd\L	-re	4e\	.	.	.	8dd\	.	.	.	.	.	.
.	.	.	.	.	.	.	8cc#X\J	.	.	.	.	.	8cc#X\J	.	.	.	.	.	.
=116	=116	=116	=116	=116	=116	=116	=116	=116	=116	=116	=116	=116	=116	=116	=116	=116	=116	=116	=116
!	!	!	!	!	!LO:LB:g=original	!	!	!	!	!	!	!	!	!	!	!	!	!	!
2D\	.	.	1ryy	1ryy	8f#\	co-	8dd\	co-	2d\	.	2f#/	.	8dd\L	.	1ryy	1ryy	1r	.	1r
.	.	.	.	.	8f#\	-le-	8cc\	-le-	.	.	.	.	8cc\J	.	.	.	.	.	.
.	.	.	.	.	4f#\	-re	4dd\	-re	.	.	.	.	4dd\	.	.	.	.	.	.
8D'/L	.	.	.	.	2r	.	2r	.	(8d\L	.	2r	.	2r	.	.	.	.	.	.
8C'/	.	.	.	.	.	.	.	.	8c\)	.	.	.	.	.	.	.	.	.	.
8BB'/	.	.	.	.	.	.	.	.	(8B\	.	.	.	.	.	.	.	.	.	.
8AA'/J	.	.	.	.	.	.	.	.	8A\J)	.	.	.	.	.	.	.	.	.	.
=117	=117	=117	=117	=117	=117	=117	=117	=117	=117	=117	=117	=117	=117	=117	=117	=117	=117	=117	=117
!	!	!	!	!	!LO:TX:a:t=2	!	!	!	!	!	!	!	!	!	!	!	!	!	!
!	!	!	!	!	!LO:TX:t=P:problem=błędnie wpisana liczba taktów pauz	!	!	!	!	!	!	!	!	!	!	!	!	!	!
4GG/	.	.	1ryy	1ryy	00r	.	2.dd\	fa-	4G/	.	4r	.	2.dd\	.	1ryy	1ryy	1r	.	1r
4G\	.	.	.	.	.	.	.	.	4g\	.	4b\	.	.	.	.	.	.	.	.
4B\	.	.	.	.	.	.	.	.	4b\	.	4dd\	.	.	.	.	.	.	.	.
4G\	.	.	.	.	.	.	4gg\	-cut	4g\	.	4b\	.	4gg\	.	.	.	.	.	.
=118	=118	=118	=118	=118	=118	=118	=118	=118	=118	=118	=118	=118	=118	=118	=118	=118	=118	=118	=118
4A\	6	.	1ryy	1ryy	.	.	2gg\	por-	4a\	.	4cc\	.	2gg\	.	1ryy	1ryy	1r	.	1r
4AA/	.	.	.	.	.	.	.	.	4A/	.	4cc\	.	.	.	.	.	.	.	.
4A\	.	.	.	.	.	.	8gg\L	.	4a\	.	4cc\	.	8gg\L	.	.	.	.	.	.
.	.	.	.	.	.	.	8ff#\J	.	.	.	.	.	8ff#\	.	.	.	.	.	.
4G\	6	.	.	.	.	.	8ff#\L	-tem	4g\	.	4b\	.	8ff#\	.	.	.	.	.	.
.	.	.	.	.	.	.	8ee\J	.	.	.	.	.	8ee\J	.	.	.	.	.	.
=119	=119	=119	=119	=119	=119	=119	=119	=119	=119	=119	=119	=119	=119	=119	=119	=119	=119	=119	=119
.	.	.	.	.	.	.	.	.	.	.	.	.	4qqee/	.	.	.	.	.	.
4F#\	6:	.	1ryy	1ryy	.	.	(4.dd\	Chri-	4f#\	.	4a/	.	4.dd\	.	1ryy	1ryy	1r	.	1r
4D\	.	.	.	.	.	.	.	.	4d\	.	4f#/	.	.	.	.	.	.	.	.
.	.	.	.	.	.	.	8ee\	.	.	.	.	.	8ee\	.	.	.	.	.	.
4E\	.	.	.	.	.	.	4dd\)	.	4e\	.	4g/	.	8ee\L	.	.	.	.	.	.
.	.	.	.	.	.	.	.	.	.	.	.	.	8dd\	.	.	.	.	.	.
4F#\	5	.	.	.	.	.	4cc\	-sti	4f#\	.	4a/	.	8dd\	.	.	.	.	.	.
.	.	.	.	.	.	.	.	.	.	.	.	.	8cc\J	.	.	.	.	.	.
=120	=120	=120	=120	=120	=120	=120	=120	=120	=120	=120	=120	=120	=120	=120	=120	=120	=120	=120	=120
!	!	!	!	!	!	!	!	!	!	!	!LO:LB:g=original	!	!	!	!	!	!	!	!
.	.	.	.	.	.	.	4qqee/	.	.	.	.	.	8qqdd/	.	.	.	.	.	.
4G\	.	.	1ryy	1ryy	.	.	2ddTT\	mor-	4g\	.	4d/	.	2cc\	.	1ryy	1ryy	1r	.	1r
4GG/	.	.	.	.	.	.	.	.	4G/	.	4d/	.	.	.	.	.	.	.	.
4GG/	.	.	.	.	.	.	4b\	te	4G/	.	4b\	.	4b\	.	.	.	.	.	.
4AA/	.	.	.	.	.	.	4r	.	4A/	.	4cc\	.	4r	.	.	.	.	.	.
=121	=121	=121	=121	=121	=121	=121	=121	=121	=121	=121	=121	=121	=121	=121	=121	=121	=121	=121	=121
!	!	!	!	!	!	!	!LO:PB:g=original	!	!	!	!	!	!	!	!	!	!	!	!
!	!	!	!	!	!	!	!LO:TX:a:t=6	!	!	!	!	!	!	!	!	!	!	!	!
4BB/	.	.	1ryy	1ryy	2.g\	Paʃ-	00r	.	4B/	.	4dd\	.	2.gg\	.	1ryy	1ryy	1r	.	1r
4BB/	.	.	.	.	.	.	.	.	4B/	.	4dd\	.	.	.	.	.	.	.	.
4BB/	.	.	.	.	.	.	.	.	4B/	.	4dd\	.	.	.	.	.	.	.	.
4BB/	.	.	.	.	8dd\L	-si-	.	.	4B/	.	4dd\	.	8ddd\L	.	.	.	.	.	.
.	.	.	.	.	8b\J	.	.	.	.	.	.	.	8bb\J	.	.	.	.	.	.
=122	=122	=122	=122	=122	=122	=122	=122	=122	=122	=122	=122	=122	=122	=122	=122	=122	=122	=122	=122
!LO:LB:g=original	!	!	!	!	!	!	!	!	!LO:LB:g=original	!	!	!	!	!	!	!	!	!	!
.	.	.	.	.	8qqb/	.	.	.	.	.	.	.	8qqbb/	.	.	.	.	.	.
4r	.	.	1ryy	1ryy	2.a\	-o-	.	.	4r	.	4r	.	2.aa\	.	1ryy	1ryy	1r	.	1r
4C/	.	.	.	.	.	.	.	.	4c/	.	4ee\	.	.	.	.	.	.	.	.
4C/	.	.	.	.	.	.	.	.	4c/	.	4ee\	.	.	.	.	.	.	.	.
4C/	.	.	.	.	4cc\	-nis	.	.	4c/	.	4ee\	.	4ccc\	.	.	.	.	.	.
=123	=123	=123	=123	=123	=123	=123	=123	=123	=123	=123	=123	=123	=123	=123	=123	=123	=123	=123	=123
2D\	.	.	1ryy	1ryy	8cc\L	e-	.	.	2d/	.	8ee\L	.	8ccc\L	.	1ryy	1ryy	1r	.	1r
.	.	.	.	.	8b\	.	.	.	.	.	8dd\	.	8bb\	.	.	.	.	.	.
.	.	.	.	.	8b\	-jus	.	.	.	.	8dd\	.	8bb\	.	.	.	.	.	.
.	.	.	.	.	8a\J	.	.	.	.	.	8cc\J	.	8aa\J	.	.	.	.	.	.
!	!	!	!	!	!	!	!	!	!	!	!	!	!LO:LB:g=original	!	!	!	!	!	!
2DD/	.	.	.	.	8a\L	sor-	.	.	2D/	.	8cc\L	.	8aa\L	.	.	.	.	.	.
.	.	.	.	.	8g\	.	.	.	.	.	8b\	.	8gg\	.	.	.	.	.	.
.	.	.	.	.	8g\	.	.	.	.	.	8b\	.	8gg\	.	.	.	.	.	.
.	.	.	.	.	8f#\J	.	.	.	.	.	8a\J	.	8ff#\J	.	.	.	.	.	.
=124	=124	=124	=124	=124	=124	=124	=124	=124	=124	=124	=124	=124	=124	=124	=124	=124	=124	=124	=124
.	.	.	.	.	8qqf#/	.	.	.	.	.	16qqa/	.	4qqff#/	.	.	.	.	.	.
4GG/	.	.	1ryy	1ryy	2g\	-tem	.	.	4G/	.	2b\	.	2gg\	.	1ryy	1ryy	1r	.	1r
4BB/	.	.	.	.	.	.	.	.	4B/	.	.	.	.	.	.	.	.	.	.
4D/	.	.	.	.	2r	.	.	.	4d/	.	2r	.	2r	.	.	.	.	.	.
4G/	.	.	.	.	.	.	.	.	4g\	.	.	.	.	.	.	.	.	.	.
=125	=125	=125	=125	=125	=125	=125	=125	=125	=125	=125	=125	=125	=125	=125	=125	=125	=125	=125	=125
!	!	!	!	!	!	!	!	!	!	!	!	!	!LO:TX:a:t=problem:repetycja taktów 125-126	!	!	!	!	!	!
4F#\	6	.	1ryy	1ryy	(4.a\	fac-	0r	.	4f#\	.	4r	.	4r	.	1ryy	1ryy	1r	.	1r
4r	.	.	.	.	.	.	.	.	4r	.	4dd\	.	4aa\	.	.	.	.	.	.
.	.	.	.	.	8f#\)	.	.	.	.	.	.	.	.	.	.	.	.	.	.
4F#\	.	.	.	.	4d\	.	.	.	4f#\	.	4r	.	4r	.	.	.	.	.	.
4r	.	.	.	.	8r	.	.	.	4r	.	4dd\	.	4aa\	.	.	.	.	.	.
.	.	.	.	.	8cc\	ut	.	.	.	.	.	.	.	.	.	.	.	.	.
=126	=126	=126	=126	=126	=126	=126	=126	=126	=126	=126	=126	=126	=126	=126	=126	=126	=126	=126	=126
!	!	!	!	!	!LO:LB:g=original	!	!	!	!	!	!	!	!	!	!	!	!	!	!
4G\	.	.	1ryy	1ryy	8b\L	-per-	.	.	4g\	.	4r	.	4r	.	1ryy	1ryy	1r	.	1r
.	.	.	.	.	8cc\J	.	.	.	.	.	.	.	.	.	.	.	.	.	.
4r	.	.	.	.	4dd\	-tem	.	.	4r	.	4dd\	.	4gg\	.	.	.	.	.	.
4G\	.	.	.	.	2r	.	.	.	4g\	.	4r	.	4r	.	.	.	.	.	.
4r	.	.	.	.	.	.	.	.	4r	.	4dd\	.	4bb\	.	.	.	.	.	.
=127	=127	=127	=127	=127	=127	=127	=127	=127	=127	=127	=127	=127	=127	=127	=127	=127	=127	=127	=127
!	!	!	!	!	!LO:TX:a:t=problem:brak dwóch taktów pauzy	!	!	!	!	!	!	!	!	!	!	!	!	!	!
4F#\	6	.	1ryy	1ryy	0r	.	(4.aa\	Chri-	4f#\	.	4r	.	4r	.	1ryy	1ryy	1r	.	1r
4r	.	.	.	.	.	.	.	.	4r	.	4dd\	.	4aa\	.	.	.	.	.	.
.	.	.	.	.	.	.	8ff#\)	.	.	.	.	.	.	.	.	.	.	.	.
4F#\	.	.	.	.	.	.	8dd\	.	4f#\	.	4r	.	4r	.	.	.	.	.	.
.	.	.	.	.	.	.	4r	.	.	.	.	.	.	.	.	.	.	.	.
4r	.	.	.	.	.	.	.	.	4r	.	4dd\	.	4aa\	.	.	.	.	.	.
.	.	.	.	.	.	.	8cc\	-sti	.	.	.	.	.	.	.	.	.	.	.
=128	=128	=128	=128	=128	=128	=128	=128	=128	=128	=128	=128	=128	=128	=128	=128	=128	=128	=128	=128
4G\	.	.	1ryy	1ryy	.	.	4cc\	mor-	4g\	.	4r	.	4r	.	1ryy	1ryy	1r	.	1r
4r	.	.	.	.	.	.	4b\	-tem	4r	.	4dd\	.	4gg\	.	.	.	.	.	.
4G\	.	.	.	.	.	.	2r	.	4g\	.	4r	.	4r	.	.	.	.	.	.
4r	.	.	.	.	.	.	.	.	4r	.	4dd\	.	4bb\	.	.	.	.	.	.
=129	=129	=129	=129	=129	=129	=129	=129	=129	=129	=129	=129	=129	=129	=129	=129	=129	=129	=129	=129
!	!	!	!	!	!	!	!	!	!	!	!LO:LB:g=original	!	!	!	!	!	!	!	!
4r	.	.	1ryy	1ryy	2.cc\	Paʃ-	2.ee\	Paʃ-	4r	.	2.cc\	.	2.ee\	.	1ryy	1ryy	1r	.	1r
4G\	6 4	.	.	.	.	.	.	.	4g\	.	.	.	.	.	.	.	.	.	.
4G\	.	.	.	.	.	.	.	.	4g\	.	.	.	.	.	.	.	.	.	.
4G\	.	.	.	.	4cc\	-si-	8gg\L	-si-	4g\	.	12ee\L	.	12gg\L	.	.	.	.	.	.
.	.	.	.	.	.	.	.	.	.	.	12dd\	.	12ff#\	.	.	.	.	.	.
.	.	.	.	.	.	.	8ee\J	.	.	.	.	.	.	.	.	.	.	.	.
.	.	.	.	.	.	.	.	.	.	.	12cc\J	.	12ee\J	.	.	.	.	.	.
=130	=130	=130	=130	=130	=130	=130	=130	=130	=130	=130	=130	=130	=130	=130	=130	=130	=130	=130	=130
!LO:LO:LB:g=original	!	!	!	!	!	!	!	!	!	!	!	!	!	!	!	!	!	!	!
.	.	.	.	.	.	.	.	.	.	.	8qqcc/	.	8qqee/	.	.	.	.	.	.
4r	.	.	1ryy	1ryy	2.b\	-o-	2.dd\	-o-	4r	.	2.b\	.	2.dd\	.	1ryy	1ryy	1r	.	1r
4G\	.	.	.	.	.	.	.	.	4g\	.	.	.	.	.	.	.	.	.	.
4G\	.	.	.	.	.	.	.	.	4g\	.	.	.	.	.	.	.	.	.	.
4G\	.	.	.	.	4b\	-nis	4gg\	-nis	4g\	.	4b\	.	4gg\	.	.	.	.	.	.
=131	=131	=131	=131	=131	=131	=131	=131	=131	=131	=131	=131	=131	=131	=131	=131	=131	=131	=131	=131
4G\	.	.	1ryy	1ryy	2.a\	e-	4.cc\	e-	4e\	.	2.a/	.	4.dd\	.	1ryy	1ryy	1r	.	1r
4G\	.	.	.	.	.	.	.	.	4e\	.	.	.	.	.	.	.	.	.	.
.	.	.	.	.	.	.	16b\LL	.	.	.	.	.	16b\LL	.	.	.	.	.	.
.	.	.	.	.	.	.	16cc\JJ	.	.	.	.	.	16cc\JJ	.	.	.	.	.	.
4F#\	.	.	.	.	.	.	4dd\	.	4d\	.	.	.	4dd\	.	.	.	.	.	.
4F#\	.	.	.	.	4a\	-jus	4cc\	-jus	4d\	.	4a/	.	4cc\	.	.	.	.	.	.
=132	=132	=132	=132	=132	=132	=132	=132	=132	=132	=132	=132	=132	=132	=132	=132	=132	=132	=132	=132
!	!	!	!	!	!	!	!	!	!LO:LB:g=original	!	!	!	!	!	!	!	!	!	!
.	.	.	.	.	.	.	4qqdd/	.	.	.	.	.	8qqdd/	.	.	.	.	.	.
4G\	4	.	1ryy	1ryy	2a\	sor-	2cc\	sor-	4G/	.	2a/	.	2cc\	.	1ryy	1ryy	1r	.	1r
4GG/	5	.	.	.	.	.	.	.	4g\	.	.	.	.	.	.	.	.	.	.
4G\	.	.	.	.	4g\	-tem	4b\	-tem	4G/	.	4g/	.	4b\	.	.	.	.	.	.
4r	.	.	.	.	4r	.	4r	.	4r	.	8r	.	8r	.	.	.	.	.	.
.	.	.	.	.	.	.	.	.	.	.	8gg\	.	8bb\	.	.	.	.	.	.
=133	=133	=133	=133	=133	=133	=133	=133	=133	=133	=133	=133	=133	=133	=133	=133	=133	=133	=133	=133
4D\	.	.	1ryy	1ryy	4r	.	4r	.	4d\	.	(4gg\	.	4bb\	.	1ryy	1ryy	1r	.	1r
4r	.	.	.	.	8r	.	8r	.	4r	.	8.ff#\L)	.	8.aa\L	.	.	.	.	.	.
.	.	.	.	.	8a\	et	8cc\	et	.	.	.	.	.	.	.	.	.	.	.
.	.	.	.	.	.	.	.	.	.	.	16a\Jk	.	16cc\Jk	.	.	.	.	.	.
4GG/	.	.	.	.	4a\	pla-	4ccT\	pla-	4d\	.	(4a\	.	4cc\	.	.	.	.	.	.
4r	.	.	.	.	4g\	-gas	4b\	-gas	4r	.	8.g\L)	.	8.b\L	.	.	.	.	.	.
.	.	.	.	.	.	.	.	.	.	.	16gg\Jk	.	16bb\Jk	.	.	.	.	.	.
=134	=134	=134	=134	=134	=134	=134	=134	=134	=134	=134	=134	=134	=134	=134	=134	=134	=134	=134	=134
!	!	!	!	!	!LO:PB:g=original	!	!	!	!	!	!	!	!	!	!	!	!	!	!
4D\	.	.	1ryy	1ryy	4r	.	4r	.	4d\	.	4gg\	.	4bb\	.	1ryy	1ryy	1r	.	1r
4r	.	.	.	.	8r	.	8r	.	4r	.	8.ff#\L	.	8.aa\L	.	.	.	.	.	.
.	.	.	.	.	8a\	et	8cc\	et	.	.	.	.	.	.	.	.	.	.	.
.	.	.	.	.	.	.	.	.	.	.	16a\Jk	.	16cc\Jk	.	.	.	.	.	.
4GG/	.	.	.	.	4a\	pla-	4ccM\	pla-	4d\	.	4a\	.	4cc\	.	.	.	.	.	.
4r	.	.	.	.	8g\	-gas	8b\	-gas	4r	.	8.g\L	.	8.b\L	.	.	.	.	.	.
.	.	.	.	.	8b\	et	8dd\	et	.	.	.	.	.	.	.	.	.	.	.
.	.	.	.	.	.	.	.	.	.	.	16b\Jk	.	16dd\Jk	.	.	.	.	.	.
=135	=135	=135	=135	=135	=135	=135	=135	=135	=135	=135	=135	=135	=135	=135	=135	=135	=135	=135	=135
!	!	!	!	!	!	!	!	!	!	!	!	!	!LO:LB:g=original	!	!	!	!	!	!
4C/	.	.	1ryy	1ryy	2cc\	pla-	4ee\	pla-	4g\	.	4cc\	.	4ee\	.	1ryy	1ryy	1r	.	1r
4AA/	6	.	.	.	.	.	8.ff#tt\L	.	4a\	.	4cc\	.	8.ff#t\L	.	.	.	.	.	.
.	.	.	.	.	.	.	32ee\LL	.	.	.	.	.	32ee\LL	.	.	.	.	.	.
.	.	.	.	.	.	.	32ff#\JJJ	.	.	.	.	.	32ff#\JJJ	.	.	.	.	.	.
4GG/	.	.	.	.	8b\L	-gas	8gg\L	-gas	4g\	.	8b\L	.	8gg\L	.	.	.	.	.	.
.	.	.	.	.	8cc\J	.	8ee\J	.	.	.	8cc\	.	8ff#\	.	.	.	.	.	.
4C/	6	.	.	.	8b\L	re-	8dd\L	-re	4e\	.	8b\	.	8ee\	.	.	.	.	.	.
.	.	.	.	.	8a\J	.	8cc\J	.	.	.	8a\J	.	8dd\J	.	.	.	.	.	.
=136	=136	=136	=136	=136	=136	=136	=136	=136	=136	=136	=136	=136	=136	=136	=136	=136	=136	=136	=136
4D\	6 4	.	1ryy	1ryy	2g\	co-	2b\	co-	4d\	.	2g/	.	2b/	.	1ryy	1ryy	1r	.	1r
4D\	.	.	.	.	.	.	.	.	4d\	.	.	.	.	.	.	.	.	.	.
4DD/	5 3	.	.	.	4.f#\	.	4.aTT\	.	4D/	.	2f#/	.	2aT/	.	.	.	.	.	.
4DD/	.	.	.	.	.	.	.	.	4D/	.	.	.	.	.	.	.	.	.	.
.	.	.	.	.	8f#\	-le-	8a\	-le-	.	.	.	.	.	.	.	.	.	.	.
=137	=137	=137	=137	=137	=137	=137	=137	=137	=137	=137	=137	=137	=137	=137	=137	=137	=137	=137	=137
4GG/	.	.	1ryy	1ryy	2g\	-re-	2g\	-re-	4G/	.	2g/	.	2g/	.	1ryy	1ryy	1r	.	1r
4GG/	.	.	.	.	.	.	.	.	4G/	.	.	.	.	.	.	.	.	.	.
4BB/	6	.	.	.	2r	.	2r	.	4A/	.	4r	.	4r	.	.	.	.	.	.
4GG/	.	.	.	.	.	.	.	.	4G/	.	8r	.	8r	.	.	.	.	.	.
.	.	.	.	.	.	.	.	.	.	.	8gg\	.	8bb\	.	.	.	.	.	.
=138	=138	=138	=138	=138	=138	=138	=138	=138	=138	=138	=138	=138	=138	=138	=138	=138	=138	=138	=138
!LO:LB:g=original	!	!	!	!	!	!	!	!	!	!	!LO:LB:g=original	!	!	!	!	!	!	!	!
4D\	.	.	1ryy	1ryy	4r	.	4r	.	4d\	.	(4gg\	.	4bb\	.	1ryy	1ryy	1r	.	1r
4r	.	.	.	.	8r	.	8r	.	4r	.	8.ff#\L)	.	8.aa\L	.	.	.	.	.	.
.	.	.	.	.	8a\	et	8cc\	et	.	.	.	.	.	.	.	.	.	.	.
.	.	.	.	.	.	.	.	.	.	.	16a\Jk	.	16cc\Jk	.	.	.	.	.	.
4G\	.	.	.	.	4a\	pla-	4ccT\	pla-	4d\	.	4a\	.	4cc\	.	.	.	.	.	.
4r	.	.	.	.	4g\	-gas	4b\	-gas	4r	.	8.g\L	.	8.b\L	.	.	.	.	.	.
.	.	.	.	.	.	.	.	.	.	.	16gg\Jk	.	16bb\Jk	.	.	.	.	.	.
=139	=139	=139	=139	=139	=139	=139	=139	=139	=139	=139	=139	=139	=139	=139	=139	=139	=139	=139	=139
4D\	.	.	1ryy	1ryy	4r	.	4r	.	4d\	.	(4gg\	.	4bb\	.	1ryy	1ryy	1r	.	1r
4r	.	.	.	.	8r	.	8r	.	4r	.	8.ff#\L)	.	8.aa\L	.	.	.	.	.	.
.	.	.	.	.	8a\	{et	8cc\	et	.	.	.	.	.	.	.	.	.	.	.
.	.	.	.	.	.	.	.	.	.	.	16a\Jk	.	16cc\Jk	.	.	.	.	.	.
!	!	!	!	!	!	!	!LO:LB:g=original	!	!	!	!	!	!	!	!	!	!	!	!
4G\	.	.	.	.	4a\	pla-	4ccT\	pla-	4d\	.	4a\	.	4cc\	.	.	.	.	.	.
4r	.	.	.	.	8g\L	-gas}	8b\	-gas	4r	.	8g\	.	8.b\L	.	.	.	.	.	.
.	.	.	.	.	8dd\J	et	8dd\	et	.	.	8r	.	.	.	.	.	.	.	.
.	.	.	.	.	.	.	.	.	.	.	.	.	16dd\Jk	.	.	.	.	.	.
=140	=140	=140	=140	=140	=140	=140	=140	=140	=140	=140	=140	=140	=140	=140	=140	=140	=140	=140	=140
!	!	!	!	!	!LO:LB:g=original	!	!	!	!	!	!	!	!	!	!	!	!	!	!
4r	.	.	1ryy	1ryy	1fn	pla-	1r	.	4r	.	1d	.	1fn	.	1ryy	1ryy	1r	.	1r
4GG/	7-	.	.	.	.	.	.	.	4B/	.	.	.	.	.	.	.	.	.	.
4AA/	.	.	.	.	.	.	.	.	4c/	.	.	.	.	.	.	.	.	.	.
4BB/	.	.	.	.	.	.	.	.	4d/	.	.	.	.	.	.	.	.	.	.
=141	=141	=141	=141	=141	=141	=141	=141	=141	=141	=141	=141	=141	=141	=141	=141	=141	=141	=141	=141
!	!	!	!	!	!	!	!	!	!LO:LB:g=original	!	!	!	!	!	!	!	!	!	!
4C/	.	.	1ryy	1ryy	2e\	-gas	2r	.	4F#/	.	2c/	.	2e/	.	1ryy	1ryy	1r	.	1r
4CC/	.	.	.	.	.	.	.	.	4F#/	.	.	.	.	.	.	.	.	.	.
4r	.	.	.	.	2cc\	et	2ee\	et	4r	.	2g/	.	2ee\	.	.	.	.	.	.
4c\	.	.	.	.	.	.	.	.	4c\	.	.	.	.	.	.	.	.	.	.
=142	=142	=142	=142	=142	=142	=142	=142	=142	=142	=142	=142	=142	=142	=142	=142	=142	=142	=142	=142
4B\	6	.	1ryy	1ryy	4.b\	pla-	4.dd\	pla-	4B\	.	4g/	.	4.dd\	.	1ryy	1ryy	1r	.	1r
4B\	.	.	.	.	.	.	.	.	4B\	.	4g/	.	.	.	.	.	.	.	.
.	.	.	.	.	16a\LL	.	16cc\LL	.	.	.	.	.	16cc\LL	.	.	.	.	.	.
.	.	.	.	.	16b\JJ	.	16dd\JJ	.	.	.	.	.	16dd\JJ	.	.	.	.	.	.
.	.	.	.	.	.	.	8qqffn/	.	.	.	8qqdd/	.	16qqffn/	.	.	.	.	.	.
4c\	.	.	.	.	4cc\	-gas	4ee\	-gas	4c\	.	4cc\	.	4ee\	.	.	.	.	.	.
4c\	.	.	.	.	8b\L	-re-	8dd\L	-re-	4r	.	8b\L	.	8dd\L	.	.	.	.	.	.
.	.	.	.	.	8a\J	.	8cc\J	.	.	.	8a\J	.	8cc\J	.	.	.	.	.	.
=143	=143	=143	=143	=143	=143	=143	=143	=143	=143	=143	=143	=143	=143	=143	=143	=143	=143	=143	=143
4d\	6 4	.	1ryy	1ryy	1g	co-	1b	co-	4d\	<	8g/L	<	8b\L	<	1ryy	1ryy	1r	.	1r
.	<	.	.	.	.	.	.	.	.	.	8b/	.	8gg\	.	.	.	.	.	.
4d\	.	.	.	.	.	.	.	.	4d\	.	8g/	.	8b\	.	.	.	.	.	.
.	.	.	.	.	.	.	.	.	.	.	8b/J	.	8gg\J	.	.	.	.	.	.
*	*	*	*	*	*	*	*	*	*	*	*rep	*	*	*	*	*	*	*	*
!	!	!	!	!	!	!	!	!	!	!	!	!	!LO:LB:g=original	!	!	!	!	!	!
4d\	.	.	.	.	.	.	.	.	4d\	.	8g/L	.	8b\L	.	.	.	.	.	.
.	.	.	.	.	.	.	.	.	.	.	8b/	.	8gg\	.	.	.	.	.	.
4d\	.	.	.	.	.	.	.	.	4d\	.	8g/	.	8b\	.	.	.	.	.	.
.	.	.	.	.	.	.	.	.	.	.	8b/J	.	8gg\J	.	.	.	.	.	.
*	*	*	*	*	*	*	*	*	*	*	*Xrep	*	*	*	*	*	*	*	*
=144	=144	=144	=144	=144	=144	=144	=144	=144	=144	=144	=144	=144	=144	=144	=144	=144	=144	=144	=144
4D\	5 3	.	1ryy	1ryy	2.f#\	.	2.aT\	.	4D/	.	8f#/L	.	8a\L	.	1ryy	1ryy	1r	.	1r
.	.	.	.	.	.	.	.	.	.	.	8a/	.	8ff#\	.	.	.	.	.	.
4D\	.	.	.	.	.	.	.	.	4D/	.	8f#/	.	8a\	.	.	.	.	.	.
.	.	.	.	.	.	.	.	.	.	.	8a/J	.	8ff#\J	.	.	.	.	.	.
*	*	*	*	*	*	*	*	*	*	*	*rep	*	*rep	*	*	*	*	*	*
!LO:LB:g=original	!	!	!	!	!	!	!	!	!	!	!	!	!	!	!	!	!	!	!
4D\	.	.	.	.	.	.	.	.	4D/	.	8f#/L	.	8a\L	.	.	.	.	.	.
.	.	.	.	.	.	.	.	.	.	.	8a/	.	8ff#\	.	.	.	.	.	.
4D\	.	.	.	.	4f#\	-le-	4a\	-le-	4D/	.	8f#/	.	8a\	.	.	.	.	.	.
.	.	.	.	.	.	.	.	.	.	.	8a/J	.	8ff#\J	.	.	.	.	.	.
*	*	*	*	*	*	*	*	*	*	*	*Xrep	*	*Xrep	*	*	*	*	*	*
=145	=145	=145	=145	=145	=145	=145	=145	=145	=145	=145	=145	=145	=145	=145	=145	=145	=145	=145	=145
!	!	!LO:DY:t=ffor	!	!	!	!	!	!	!	!	!	!	!	!	!	!	!	!	!
4G\	.	ff	1ryy	1ryy	2g\	-re	2g\	-re	4G/	ff	4g/	ff	4gg\	.	1ryy	1ryy	1r	.	1r
(16d\LL	.	.	.	.	.	.	.	.	(16dd\LL	.	(16dd\LL	.	(16dd\LL	.	.	.	.	.	.
16c\	.	.	.	.	.	.	.	.	16cc\	.	16cc\	.	16cc\	.	.	.	.	.	.
16B\	.	.	.	.	.	.	.	.	16b\	.	16b\	.	16b\	.	.	.	.	.	.
16A\JJ)	.	.	.	.	.	.	.	.	16a\JJ)	.	16a\JJ)	.	16a\JJ)	.	.	.	.	.	.
8G'\L	.	.	.	.	2r	.	2r	.	8g'\L	.	8g'/L	.	8g/L	.	.	.	.	.	.
8F#'\	.	.	.	.	.	.	.	.	8f#'\	.	8f#'/	.	8f#/	.	.	.	.	.	.
8E'\	.	.	.	.	.	.	.	.	8e'\	.	8e'/	.	8e/	.	.	.	.	.	.
8Dn'\J	.	.	.	.	.	.	.	.	8d#X'\J	.	8d#X'/J	.	8d#X/J	.	.	.	.	.	.
=146	=146	=146	=146	=146	=146	=146	=146	=146	=146	=146	=146	=146	=146	=146	=146	=146	=146	=146	=146
!	!	!	!	!	!LO:TX:a:t=1	!	!	!	!	!	!	!	!	!	!	!	!	!	!
4E\	.	.	1ryy	1ryy	1r	.	1r	.	4e\	.	4e/	.	4e/	.	1ryy	1ryy	1r	.	1r
(16B\LL	.	.	.	.	.	.	.	.	(16b\LL	.	(16b/LL	.	16b/LL	.	.	.	.	.	.
16A\	.	.	.	.	.	.	.	.	16a\	.	16a/	.	16a/	.	.	.	.	.	.
16G\	.	.	.	.	.	.	.	.	16g\	.	16g/	.	16g/	.	.	.	.	.	.
16F#\JJ)	.	.	.	.	.	.	.	.	16f#\JJ)	.	16f#/JJ)	.	16f#/JJ	.	.	.	.	.	.
8E'\L	.	.	.	.	.	.	.	.	8e'\L	.	8e'/L	.	8e/L	.	.	.	.	.	.
8D'\	.	.	.	.	.	.	.	.	8d'\	.	8d'/	.	8d/	.	.	.	.	.	.
8C'\	.	.	.	.	.	.	.	.	8c'\	.	8c'/	.	8c/	.	.	.	.	.	.
8BB\J	.	.	.	.	.	.	.	.	8B\J	.	8B/J	.	8B/J	.	.	.	.	.	.
=147	=147	=147	=147	=147	=147	=147	=147	=147	=147	=147	=147	=147	=147	=147	=147	=147	=147	=147	=147
4C/	.	.	1ryy	1ryy	2r	.	2r	.	4c\	.	4c/	.	4c/	.	1ryy	1ryy	1r	.	1r
8r	.	.	.	.	.	.	.	.	8r	.	4b\	.	4gg\	.	.	.	.	.	.
8BB/	.	.	.	.	.	.	.	.	8B/	.	.	.	.	.	.	.	.	.	.
8C/L	.	.	.	.	4r	.	4r	.	8c\L	.	4b\	.	4gg\	.	.	.	.	.	.
8BB/	.	.	.	.	.	.	.	.	8B\	.	.	.	.	.	.	.	.	.	.
8C/	.	.	.	.	8r	.	8r	.	8c\	.	4b\	.	4gg\	.	.	.	.	.	.
8C#X/J	.	.	.	.	8g\	re-	8b\	-re-	8c#X\J	.	.	.	.	.	.	.	.	.	.
=148	=148	=148	=148	=148	=148	=148	=148	=148	=148	=148	=148	=148	=148	=148	=148	=148	=148	=148	=148
!	!	!	!	!	!	!	!	!	!LO:LB:g=original	!	!	!	!	!	!	!	!	!	!
2D;\	6 4	.	1ryy	1ryy	2g;\	co-	2b;\	co-	2d;\	.	2b;\	.	2gg;\	.	1ryy	1ryy	1r;	.	1r;
2DD/	.	.	.	.	4.f#t\	.	4.a\	.	2r	.	2r	.	2r	.	.	.	.	.	.
.	.	.	.	.	8f#\	-le-	8a\	-le-	.	.	.	.	.	.	.	.	.	.	.
=149	=149	=149	=149	=149	=149	=149	=149	=149	=149	=149	=149	=149	=149	=149	=149	=149	=149	=149	=149
!	!	!	!	!	!LO:LB:g=original	!	!	!	!	!	!	!	!	!	!	!	!	!	!
4G\	.	.	1ryy	1ryy	2g\	re	2g\	-re	4g\	.	4g/	.	4g/	.	1ryy	1ryy	2b\	.	2gg\
4GG/	.	.	.	.	.	.	.	.	4G/	.	8r	.	8r	.	.	.	.	.	.
.	.	.	.	.	.	.	.	.	.	.	8g/	.	8g/	.	.	.	.	.	.
2r	.	.	.	.	2r	.	2r	.	2r	.	8f#/L	.	8a/L	.	.	.	2r	.	2r
.	.	.	.	.	.	.	.	.	.	.	8g/	.	8g/	.	.	.	.	.	.
.	.	.	.	.	.	.	.	.	.	.	8a/	.	8cc/	.	.	.	.	.	.
.	.	.	.	.	.	.	.	.	.	.	8g/J	.	8b/J	.	.	.	.	.	.
=150	=150	=150	=150	=150	=150	=150	=150	=150	=150	=150	=150	=150	=150	=150	=150	=150	=150	=150	=150
!LO:LB:g=original	!	!	!	!	!	!	!	!	!	!	!	!	!	!	!	!	!	!	!
.	.	.	.	.	.	.	.	.	.	.	.	.	8qqb/	.	.	.	.	.	.
4D\	.	.	1ryy	1ryy	00r	.	1r	.	4d\	.	4f#/	.	4a/	.	1ryy	1ryy	2ff#\	.	2aa\
4DD/	.	.	.	.	.	.	.	.	4D/	.	8r	.	8r	.	.	.	.	.	.
.	.	.	.	.	.	.	.	.	.	.	8f#/	.	8a/	.	.	.	.	.	.
2r	.	.	.	.	.	.	.	.	2r	.	(8g/L	.	8b\L	.	.	.	2r	.	2r
.	.	.	.	.	.	.	.	.	.	.	8f#/)	.	8a\	.	.	.	.	.	.
.	.	.	.	.	.	.	.	.	.	.	8b/	.	8dd\	.	.	.	.	.	.
.	.	.	.	.	.	.	.	.	.	.	8a/J	.	8cc\J	.	.	.	.	.	.
=151	=151	=151	=151	=151	=151	=151	=151	=151	=151	=151	=151	=151	=151	=151	=151	=151	=151	=151	=151
.	.	.	.	.	.	.	.	.	.	.	.	.	8qqcc/	.	.	.	.	.	.
4G\	.	.	1ryy	1ryy	.	.	1r	.	4g\	.	8g/	.	4b\	.	1ryy	1ryy	4gg\	.	4bb\
.	.	.	.	.	.	.	.	.	.	.	4r	.	.	.	.	.	.	.	.
4GG/	.	.	.	.	.	.	.	.	4G/	.	.	.	8r	.	.	.	8r	.	8r
.	.	.	.	.	.	.	.	.	.	.	8b\	.	8dd\	.	.	.	8b\	.	8dd\
2r	.	.	.	.	.	.	.	.	2r	.	(8cc\L	.	(8ee\L	.	.	.	8cc\L	.	8ee\L
.	.	.	.	.	.	.	.	.	.	.	8dd\	.	8ff#\	.	.	.	8dd\	.	8ff#\
.	.	.	.	.	.	.	.	.	.	.	8ee\	.	8gg\	.	.	.	8ee\	.	8gg\
.	.	.	.	.	.	.	.	.	.	.	8dd\J)	.	8ff#\J)	.	.	.	8dd\J	.	8ff#\J
=152	=152	=152	=152	=152	=152	=152	=152	=152	=152	=152	=152	=152	=152	=152	=152	=152	=152	=152	=152
!	!	!	!	!	!	!	!	!	!	!	!	!	!LO:LB:g=original	!	!	!	!LO:LB:g=original	!	!
!	!	!	!	!	!	!	!	!	!	!	!	!	!LO:TX:a:t=problem:niewyraźne zakończenie łuku	!	!	!	!	!	!
2C/	.	.	1ryy	1ryy	.	.	1r	.	2c\	.	(8dd\L	.	(8ff#\L	.	1ryy	1ryy	8dd\L	.	8ff#\L
.	.	.	.	.	.	.	.	.	.	.	8cc\)	.	8ee\)	.	.	.	8cc\	.	8ee\
.	.	.	.	.	.	.	.	.	.	.	(8cc\	.	(8ee\	.	.	.	8cc\	.	8ee\
.	.	.	.	.	.	.	.	.	.	.	8b\J)	.	8dd\J)	.	.	.	8b\J	.	8dd\J
4r	.	.	.	.	.	.	.	.	4r	.	(8b\L	.	(8dd\L	.	.	.	8b\L	.	8dd\L
.	.	.	.	.	.	.	.	.	.	.	8a\)	.	8cc\)	.	.	.	8a\	.	8cc\
4C#X/	7	.	.	.	.	.	.	.	4c#X\	.	(8a\	.	(8cc\	.	.	.	8g\	.	8cc\
.	.	.	.	.	.	.	.	.	.	.	8g\J)	.	8b\J)	.	.	.	8g\J	.	8b\J
=153	=153	=153	=153	=153	=153	=153	=153	=153	=153	=153	=153	=153	=153	=153	=153	=153	=153	=153	=153
!	!	!	!	!	!	!	!	!	!	!	!LO:LB:g=original	!	!	!	!	!	!	!	!
4D\	6 4	.	1ryy	1ryy	.	.	1r	.	4d\	.	(2g/	.	(2b\	.	1ryy	1ryy	2g\	.	2b\
4DD/	5 3	.	.	.	.	.	.	.	4D/	.	.	.	.	.	.	.	.	.	.
4D\	.	.	.	.	.	.	.	.	4d\	.	4f#/)	.	4a\)	.	.	.	4f#\	.	4a\
4r	.	.	.	.	.	.	.	.	4r	.	8r	.	8r	.	.	.	4r	.	4r
.	.	.	.	.	.	.	.	.	.	.	8gg\	.	8bb\	.	.	.	.	.	.
=154	=154	=154	=154	=154	=154	=154	=154	=154	=154	=154	=154	=154	=154	=154	=154	=154	=154	=154	=154
4D\	.	.	1ryy	1ryy	00r	.	1r	.	4d\	.	(4gg\	.	4bb\	.	1ryy	1ryy	4r	.	4r
4r	.	.	.	.	.	.	.	.	4r	.	8.ff#\L)	.	8.aa\L	.	.	.	8r	.	8r
.	.	.	.	.	.	.	.	.	.	.	.	.	.	.	.	.	8a\	.	8cc\
.	.	.	.	.	.	.	.	.	.	.	16a\Jk	.	16cc\Jk	.	.	.	.	.	.
!	!	!	!	!	!	!	!	!	!	!	!	!	!	!	!	!	!	!	!LO:LB:g=original
4GG/	.	.	.	.	.	.	.	.	4d\	.	(4a/	.	4cc\	.	.	.	4a\	.	4cc^\
!	!	!	!	!	!	!	!	!	!	!	!LO:TX:a:t=problem:mixed beam	!	!	!	!	!	!	!	!
4r	.	.	.	.	.	.	.	.	4r	.	8.g/L)	.	8.b\L	.	.	.	4g\	.	4b\
.	.	.	.	.	.	.	.	.	.	.	16gg\Jk	.	16bb\Jk	.	.	.	.	.	.
=155	=155	=155	=155	=155	=155	=155	=155	=155	=155	=155	=155	=155	=155	=155	=155	=155	=155	=155	=155
4D\	.	.	1ryy	1ryy	.	.	1r	.	4d\	.	(4gg\	.	4bb\	.	1ryy	1ryy	4r	.	4r
4r	.	.	.	.	.	.	.	.	4r	.	8.ff#\L)	.	8.aa\L	.	.	.	8r	.	8r
.	.	.	.	.	.	.	.	.	.	.	.	.	.	.	.	.	8a\	.	8cc'\
.	.	.	.	.	.	.	.	.	.	.	16a\Jk	.	16cc\Jk	.	.	.	.	.	.
4GG/	.	.	.	.	.	.	.	.	4d\	.	4a\	.	4cc\	.	.	.	4a\	.	4cc^\
4r	.	.	.	.	.	.	.	.	4r	.	8.g\L	.	8.b\L	.	.	.	8.g\L	.	8.b\L
.	.	.	.	.	.	.	.	.	.	.	16b\Jk	.	16dd\Jk	.	.	.	16b\Jk	.	16dd\Jk
=156	=156	=156	=156	=156	=156	=156	=156	=156	=156	=156	=156	=156	=156	=156	=156	=156	=156	=156	=156
!	!	!	!	!	!	!	!	!	!	!	!LO:TX:a:t=problem:niewyraźny zapis łuku	!	!	!	!	!	!	!	!
4C/	.	.	1ryy	1ryy	.	.	1r	.	4c\	.	(8cc\L	.	8ee\L	.	1ryy	1ryy	8cc\L	.	8ee\L
.	.	.	.	.	.	.	.	.	.	.	8ee\)	.	8ccc\	.	.	.	8ee\	.	8ccc\
4C/	.	.	.	.	.	.	.	.	4c\	.	(8dd\	.	8bb\	.	.	.	8dd\	.	8bb\
.	.	.	.	.	.	.	.	.	.	.	8cc\J)	.	8aa\J	.	.	.	8cc\J	.	8aa\J
4D/	.	.	.	.	.	.	.	.	4d\	.	(8cc\L	.	8aa\L	.	.	.	8cc\L	.	8aa\L
.	.	.	.	.	.	.	.	.	.	.	8b\)	.	8gg\	.	.	.	8b\	.	8gg\
4D/	.	.	.	.	.	.	.	.	4D/	.	(8b\	.	8gg\	.	.	.	8b\	.	8gg\
.	.	.	.	.	.	.	.	.	.	.	8a\J)	.	8ff#\J	.	.	.	8a\J	.	8ff#\J
=157	=157	=157	=157	=157	=157	=157	=157	=157	=157	=157	=157	=157	=157	=157	=157	=157	=157	=157	=157
!	!	!	!	!	!	!	!	!	!	!	!	!	!	!	!	!	!LO:LB:g=original	!	!
4G\	.	.	1ryy	1ryy	.	.	1r	.	4G/	.	(2a/	.	(2ff#\	.	1ryy	1ryy	2a\	.	2ff#\
4GG/	.	.	.	.	.	.	.	.	4G/	.	.	.	.	.	.	.	.	.	.
4BB/	.	.	.	.	.	.	.	.	4B/	.	4b/)	.	4gg\)	.	.	.	4b\	.	4gg\
4GG/	.	.	.	.	.	.	.	.	4G/	.	8r	.	8r	.	.	.	4r	.	4r
.	.	.	.	.	.	.	.	.	.	.	8gg\	.	8bb\	.	.	.	.	.	.
=158	=158	=158	=158	=158	=158	=158	=158	=158	=158	=158	=158	=158	=158	=158	=158	=158	=158	=158	=158
!LO:LB:g=original	!	!	!	!	!	!	!	!	!	!	!	!	!	!	!	!	!	!	!
!LO:TX:a:t=problem:repetycja taktu 158	!	!	!	!	!	!	!	!	!	!	!	!	!	!	!	!	!	!	!
4D\	.	.	1ryy	1ryy	00r	.	1r	.	4d\	.	4gg\	.	4bb\	.	1ryy	1ryy	4r	.	4r
4r	.	.	.	.	.	.	.	.	4r	.	8.ff#\L	.	8.aa\L	.	.	.	8r	.	8r
.	.	.	.	.	.	.	.	.	.	.	.	.	.	.	.	.	8a\	.	8cc'\
.	.	.	.	.	.	.	.	.	.	.	16a\Jk	.	16cc\Jk	.	.	.	.	.	.
4G\	.	.	.	.	.	.	.	.	4d\	.	(4a\	.	4cc\	.	.	.	4a\	.	4cc^\
4r	.	.	.	.	.	.	.	.	4r	.	8.g\L)	.	8.b\L	.	.	.	4g\	.	4b\
.	.	.	.	.	.	.	.	.	.	.	16gg\Jk	.	16bb\Jk	.	.	.	.	.	.
=159	=159	=159	=159	=159	=159	=159	=159	=159	=159	=159	=159	=159	=159	=159	=159	=159	=159	=159	=159
!	!	!	!	!	!	!	!	!	!LO:LB:g=original	!	!	!	!	!	!	!	!	!	!
4D\	.	.	1ryy	1ryy	.	.	1r	.	4d\	.	4gg\	.	4bb\	.	1ryy	1ryy	4r	.	4r
4r	.	.	.	.	.	.	.	.	4r	.	8.ff#\L	.	8.aa\L	.	.	.	8r	.	8r
.	.	.	.	.	.	.	.	.	.	.	.	.	.	.	.	.	8a\	.	8cc\
.	.	.	.	.	.	.	.	.	.	.	16a\Jk	.	16cc\Jk	.	.	.	.	.	.
4G\	.	.	.	.	.	.	.	.	4d\	.	4a\	.	4cc\	.	.	.	4a\	.	4cc\
4r	.	.	.	.	.	.	.	.	4r	.	8g\	.	8.b\L	.	.	.	4g\	.	8.b\L
.	.	.	.	.	.	.	.	.	.	.	8r	.	.	.	.	.	.	.	.
.	.	.	.	.	.	.	.	.	.	.	.	.	16dd\Jk	.	.	.	.	.	16dd\Jk
=160	=160	=160	=160	=160	=160	=160	=160	=160	=160	=160	=160	=160	=160	=160	=160	=160	=160	=160	=160
!	!	!	!	!	!	!	!	!	!	!	!LO:LB:g=original	!	!LO:LB:g=original	!	!	!	!	!LO:DY:t=for	!LO:LB:g=original
4c\	.	.	1ryy	1ryy	.	.	1r	.	4c\	.	8.ee\L	.	8.ee\L	.	1ryy	1ryy	2cc\	f	8.ee\L
.	.	.	.	.	.	.	.	.	.	.	16gg\K	.	16gg\K	.	.	.	.	.	16gg\K
4A\	6	.	.	.	.	.	.	.	4c\	.	8.ff#\	.	8.ff#\	.	.	.	.	.	8ff#\
.	.	.	.	.	.	.	.	.	.	.	.	.	.	.	.	.	.	.	8aa\J
.	.	.	.	.	.	.	.	.	.	.	16aa\Jk	.	16aa\Jk	.	.	.	.	.	.
4G\	7	.	.	.	.	.	.	.	4B\	.	8gg\L	.	8gg\L	.	.	.	8cc\L	.	8gg\L
.	.	.	.	.	.	.	.	.	.	.	8ee\	.	8ee\	.	.	.	8dd\	.	8ff#\
4c\	.	.	.	.	.	.	.	.	4c\	.	8dd\	.	8dd\	.	.	.	8cc\	.	8ee\
.	.	.	.	.	.	.	.	.	.	.	8cc\J	.	8cc\J	.	.	.	8b\J	.	8dd\J
=161	=161	=161	=161	=161	=161	=161	=161	=161	=161	=161	=161	=161	=161	=161	=161	=161	=161	=161	=161
2d\	.	.	1ryy	1ryy	.	.	1r	.	4d\	.	12b/L	.	(12b/L	.	1ryy	1ryy	2g/	.	4b\
.	.	.	.	.	.	.	.	.	.	.	12a/	.	12a/	.	.	.	.	.	.
.	.	.	.	.	.	.	.	.	.	.	12g/J	.	12g/J)	.	.	.	.	.	.
!	!	!	!	!	!	!	!	!	!	!	!	!	!	!	!	!	!	!	!LO:TX:a:t=problem:oznaczenie fr do tego taktu lub linijke wyżej
.	.	.	.	.	.	.	.	.	4d\	.	12f#/L	.	(12f#/L	.	.	.	.	.	2gg^\
.	.	.	.	.	.	.	.	.	.	.	12e/	.	12e/	.	.	.	.	.	.
.	.	.	.	.	.	.	.	.	.	.	12d/J	.	12d/J)	.	.	.	.	.	.
2D\	4	.	.	.	.	.	.	.	4g\	.	2aT/	.	2aT/	.	.	.	2aTT/	.	.
.	3	.	.	.	.	.	.	.	4f#\	.	.	.	.	.	.	.	.	.	4ff#sSs\
=162	=162	=162	=162	=162	=162	=162	=162	=162	=162	=162	=162	=162	=162	=162	=162	=162	=162	=162	=162
2G\	.	.	1ryy	1ryy	1r	.	1r	.	4g\	.	4g/	.	4g/	.	1ryy	1ryy	2g/	.	2gg^\
.	.	.	.	.	.	.	.	.	4d\	.	4d/	.	4d/	.	.	.	.	.	.
2r	.	.	.	.	.	.	.	.	4G/	.	4G/	.	4G/	.	.	.	2r	.	2r
.	.	.	.	.	.	.	.	.	4r	.	4r	.	4r	.	.	.	.	.	.
==	==	==	==	==	==	==	==	==	==	==	==	==	==	==	==	==	==	==	==
*-	*-	*-	*-	*-	*-	*-	*-	*-	*-	*-	*-	*-	*-	*-	*-	*-	*-	*-	*-
!!!system-decoration: [g1][g2][g3][g4]{g5}
!!!RDF**dynam: cresc = Cres
!!!RDF**kern: >= above
!!!RDF**kern: <= below
!!!AIN: 1 alto 1 bass 2 clars 2 cor 1 empty 1 organ 1 tenor 1 viola 1 violn 1 vox
!!!ENC: Anna Matuszewska
!!!END: 2020-05-12
